alexalspach/roboticslab_plotting_matlab/test_data/Encoders.txt
% time	J0	J1	J2	J3	J4	J5	J6
0.000000	0.000000	0.000000	0.000000	0.000000	0.000000	0.000000	0.000000	
0.002000	0.000000	0.000000	0.000000	0.000000	0.000000	0.000000	0.000000	
0.004000	0.000001	0.000030	0.000001	-0.000153	0.000118	0.000433	-0.000051	
0.006000	0.000002	0.000065	0.000011	-0.000327	0.000179	0.000600	-0.000001	
0.008000	0.000003	0.000104	0.000013	-0.000517	0.000215	0.000650	0.000006	
0.010000	0.000005	0.000145	0.000019	-0.000715	0.000203	0.000636	0.000020	
0.012000	0.000006	0.000185	0.000019	-0.000916	0.000181	0.000591	0.000016	
0.014000	0.000007	0.000225	0.000022	-0.001119	0.000145	0.000532	0.000014	
0.016000	0.000008	0.000263	0.000021	-0.001322	0.000113	0.000469	0.000007	
0.018000	0.000009	0.000301	0.000022	-0.001524	0.000083	0.000408	0.000004	
0.020000	0.000010	0.000337	0.000021	-0.001725	0.000061	0.000352	-0.000000	
0.022000	0.000010	0.000372	0.000021	-0.001923	0.000043	0.000302	-0.000002	
0.024000	0.000011	0.000405	0.000020	-0.002120	0.000031	0.000257	-0.000003	
0.026000	0.000011	0.000437	0.000020	-0.002314	0.000023	0.000219	-0.000003	
0.028000	0.000011	0.000467	0.000020	-0.002506	0.000018	0.000186	-0.000003	
0.030000	0.000011	0.000496	0.000020	-0.002696	0.000014	0.000157	-0.000002	
0.032000	0.000011	0.000524	0.000020	-0.002883	0.000012	0.000133	-0.000002	
0.034000	0.000011	0.000551	0.000020	-0.003068	0.000010	0.000111	-0.000001	
0.036000	0.000011	0.000576	0.000020	-0.003251	0.000009	0.000093	-0.000001	
0.038000	0.000010	0.000600	0.000020	-0.003431	0.000008	0.000077	-0.000001	
0.040000	0.000010	0.000623	0.000019	-0.003610	0.000007	0.000063	-0.000000	
0.042000	0.000010	0.000645	0.000019	-0.003786	0.000007	0.000051	-0.000000	
0.044000	0.000010	0.000666	0.000019	-0.003960	0.000006	0.000040	-0.000000	
0.046000	0.000010	0.000686	0.000019	-0.004132	0.000005	0.000030	-0.000000	
0.048000	0.000010	0.000705	0.000019	-0.004302	0.000004	0.000021	-0.000000	
0.050000	0.000010	0.000722	0.000019	-0.004470	0.000003	0.000013	-0.000000	
0.052000	0.000009	0.000739	0.000019	-0.004635	0.000002	0.000005	-0.000000	
0.054000	0.000009	0.000755	0.000018	-0.004799	0.000001	-0.000002	0.000000	
0.056000	0.000009	0.000770	0.000018	-0.004961	0.000000	-0.000008	0.000000	
0.058000	0.000009	0.000785	0.000018	-0.005120	-0.000001	-0.000014	0.000000	
0.060000	0.000009	0.000798	0.000018	-0.005278	-0.000002	-0.000020	0.000000	
0.062000	0.000009	0.000811	0.000018	-0.005433	-0.000003	-0.000025	0.000000	
0.064000	0.000009	0.000823	0.000017	-0.005587	-0.000003	-0.000030	0.000000	
0.066000	0.000008	0.000834	0.000017	-0.005739	-0.000004	-0.000035	0.000000	
0.068000	0.000008	0.000844	0.000017	-0.005889	-0.000005	-0.000040	0.000000	
0.070000	0.000008	0.000854	0.000017	-0.006037	-0.000006	-0.000044	0.000000	
0.072000	0.000008	0.000863	0.000017	-0.006183	-0.000007	-0.000048	0.000000	
0.074000	0.000008	0.000871	0.000016	-0.006327	-0.000008	-0.000052	0.000000	
0.076000	0.000008	0.000879	0.000016	-0.006470	-0.000008	-0.000056	0.000000	
0.078000	0.000008	0.000886	0.000016	-0.006611	-0.000009	-0.000060	0.000000	
0.080000	0.000007	0.000892	0.000016	-0.006750	-0.000010	-0.000064	0.000000	
0.082000	0.000007	0.000898	0.000015	-0.006887	-0.000011	-0.000067	0.000000	
0.084000	0.000007	0.000903	0.000015	-0.007022	-0.000011	-0.000071	0.000000	
0.086000	0.000007	0.000908	0.000015	-0.007156	-0.000012	-0.000074	0.000000	
0.088000	0.000007	0.000912	0.000015	-0.007287	-0.000013	-0.000077	0.000000	
0.090000	0.000007	0.000916	0.000014	-0.007418	-0.000013	-0.000080	0.000000	
0.092000	0.000007	0.000919	0.000014	-0.007546	-0.000014	-0.000083	0.000000	
0.094000	0.000006	0.000922	0.000014	-0.007673	-0.000015	-0.000086	0.000000	
0.096000	0.000006	0.000924	0.000013	-0.007798	-0.000015	-0.000089	0.000000	
0.098000	0.000006	0.000926	0.000013	-0.007922	-0.000016	-0.000092	0.000000	
0.100000	0.000006	0.000928	0.000013	-0.008044	-0.000016	-0.000094	0.000000	
0.102000	0.000006	0.000929	0.000013	-0.008164	-0.000017	-0.000097	0.000000	
0.104000	0.000006	0.000929	0.000012	-0.008283	-0.000017	-0.000100	0.000000	
0.106000	0.000006	0.000930	0.000012	-0.008400	-0.000018	-0.000102	0.000000	
0.108000	0.000006	0.000930	0.000012	-0.008515	-0.000018	-0.000104	0.000000	
0.110000	0.000005	0.000929	0.000011	-0.008630	-0.000019	-0.000107	0.000000	
0.112000	0.000005	0.000928	0.000011	-0.008742	-0.000019	-0.000109	0.000000	
0.114000	0.000005	0.000927	0.000011	-0.008853	-0.000020	-0.000111	0.000000	
0.116000	0.000005	0.000926	0.000011	-0.008963	-0.000020	-0.000113	0.000000	
0.118000	0.000005	0.000924	0.000010	-0.009071	-0.000021	-0.000115	0.000000	
0.120000	0.000005	0.000922	0.000010	-0.009178	-0.000021	-0.000117	0.000000	
0.122000	0.000005	0.000920	0.000010	-0.009283	-0.000022	-0.000119	0.000000	
0.124000	0.000004	0.000917	0.000010	-0.009387	-0.000022	-0.000121	0.000000	
0.126000	0.000004	0.000915	0.000009	-0.009489	-0.000022	-0.000123	0.000000	
0.128000	0.000004	0.000912	0.000009	-0.009590	-0.000023	-0.000125	0.000000	
0.130000	0.000004	0.000908	0.000009	-0.009690	-0.000023	-0.000126	0.000000	
0.132000	0.000004	0.000905	0.000008	-0.009788	-0.000024	-0.000128	0.000000	
0.134000	0.000004	0.000901	0.000008	-0.009885	-0.000024	-0.000130	0.000000	
0.136000	0.000004	0.000897	0.000008	-0.009981	-0.000024	-0.000131	0.000000	
0.138000	0.000004	0.000893	0.000008	-0.010075	-0.000025	-0.000133	0.000000	
0.140000	0.000004	0.000889	0.000007	-0.010168	-0.000025	-0.000134	0.000000	
0.142000	0.000003	0.000885	0.000007	-0.010260	-0.000025	-0.000136	0.000000	
0.144000	0.000003	0.000880	0.000007	-0.010350	-0.000025	-0.000137	0.000000	
0.146000	0.000003	0.000876	0.000007	-0.010439	-0.000026	-0.000138	0.000000	
0.148000	0.000003	0.000871	0.000006	-0.010527	-0.000026	-0.000140	0.000000	
0.150000	0.000003	0.000866	0.000006	-0.010614	-0.000026	-0.000141	0.000000	
0.152000	0.000003	0.000861	0.000006	-0.010700	-0.000027	-0.000142	0.000000	
0.154000	0.000003	0.000855	0.000006	-0.010784	-0.000027	-0.000143	0.000000	
0.156000	0.000003	0.000850	0.000005	-0.010867	-0.000027	-0.000144	0.000000	
0.158000	0.000003	0.000845	0.000005	-0.010949	-0.000027	-0.000145	0.000000	
0.160000	0.000002	0.000839	0.000005	-0.011030	-0.000027	-0.000146	0.000000	
0.162000	0.000002	0.000833	0.000005	-0.011110	-0.000028	-0.000147	0.000000	
0.164000	0.000002	0.000828	0.000004	-0.011188	-0.000028	-0.000148	0.000000	
0.166000	0.000002	0.000822	0.000004	-0.011266	-0.000028	-0.000149	0.000000	
0.168000	0.000002	0.000816	0.000004	-0.011342	-0.000028	-0.000150	0.000000	
0.170000	0.000002	0.000810	0.000004	-0.011417	-0.000028	-0.000151	0.000000	
0.172000	0.000002	0.000804	0.000003	-0.011492	-0.000029	-0.000152	0.000000	
0.174000	0.000002	0.000798	0.000003	-0.011565	-0.000029	-0.000152	0.000000	
0.176000	0.000002	0.000792	0.000003	-0.011637	-0.000029	-0.000153	0.000000	
0.178000	0.000002	0.000786	0.000003	-0.011708	-0.000029	-0.000154	0.000000	
0.180000	0.000002	0.000780	0.000003	-0.011778	-0.000029	-0.000155	0.000000	
0.182000	0.000001	0.000773	0.000002	-0.011847	-0.000029	-0.000155	0.000000	
0.184000	0.000001	0.000767	0.000002	-0.011915	-0.000030	-0.000156	0.000000	
0.186000	0.000001	0.000761	0.000002	-0.011982	-0.000030	-0.000157	0.000000	
0.188000	0.000001	0.000754	0.000002	-0.012048	-0.000030	-0.000157	0.000000	
0.190000	0.000001	0.000748	0.000001	-0.012113	-0.000030	-0.000158	0.000000	
0.192000	0.000001	0.000742	0.000001	-0.012178	-0.000030	-0.000158	0.000000	
0.194000	0.000001	0.000735	0.000001	-0.012241	-0.000030	-0.000159	0.000000	
0.196000	0.000001	0.000729	0.000001	-0.012303	-0.000030	-0.000159	0.000000	
0.198000	0.000001	0.000723	0.000001	-0.012365	-0.000030	-0.000160	0.000000	
0.200000	0.000001	0.000716	0.000001	-0.012425	-0.000030	-0.000160	0.000000	
0.202000	0.000001	0.000710	0.000000	-0.012485	-0.000031	-0.000160	0.000000	
0.204000	0.000001	0.000704	0.000000	-0.012543	-0.000031	-0.000161	0.000000	
0.206000	0.000001	0.000697	-0.000000	-0.012601	-0.000031	-0.000161	0.000000	
0.208000	0.000000	0.000691	-0.000000	-0.012658	-0.000031	-0.000162	0.000000	
0.210000	0.000000	0.000685	-0.000000	-0.012715	-0.000031	-0.000162	0.000000	
0.212000	0.000000	0.000678	-0.000001	-0.012770	-0.000031	-0.000162	0.000000	
0.214000	0.000000	0.000672	-0.000001	-0.012824	-0.000031	-0.000162	0.000000	
0.216000	0.000000	0.000666	-0.000001	-0.012878	-0.000031	-0.000163	0.000000	
0.218000	0.000000	0.000660	-0.000001	-0.012931	-0.000031	-0.000163	0.000000	
0.220000	0.000000	0.000653	-0.000001	-0.012983	-0.000031	-0.000163	0.000000	
0.222000	-0.000000	0.000647	-0.000001	-0.013035	-0.000031	-0.000163	0.000000	
0.224000	-0.000000	0.000641	-0.000001	-0.013085	-0.000031	-0.000164	0.000000	
0.226000	-0.000000	0.000635	-0.000002	-0.013135	-0.000031	-0.000164	0.000000	
0.228000	-0.000000	0.000629	-0.000002	-0.013184	-0.000031	-0.000164	0.000000	
0.230000	-0.000000	0.000623	-0.000002	-0.013232	-0.000031	-0.000164	0.000000	
0.232000	-0.000000	0.000617	-0.000002	-0.013280	-0.000031	-0.000164	0.000000	
0.234000	-0.000000	0.000611	-0.000002	-0.013327	-0.000031	-0.000164	0.000000	
0.236000	-0.000000	0.000605	-0.000002	-0.013373	-0.000031	-0.000165	0.000000	
0.238000	-0.000000	0.000600	-0.000002	-0.013419	-0.000031	-0.000165	0.000000	
0.240000	-0.000001	0.000594	-0.000003	-0.013463	-0.000031	-0.000165	0.000000	
0.242000	-0.000001	0.000588	-0.000003	-0.013507	-0.000031	-0.000165	0.000000	
0.244000	-0.000001	0.000582	-0.000003	-0.013551	-0.000031	-0.000165	0.000000	
0.246000	-0.000001	0.000577	-0.000003	-0.013594	-0.000031	-0.000165	0.000000	
0.248000	-0.000001	0.000571	-0.000003	-0.013636	-0.000031	-0.000165	0.000000	
0.250000	-0.000001	0.000566	-0.000003	-0.013677	-0.000032	-0.000165	0.000000	
0.252000	-0.000001	0.000560	-0.000003	-0.013718	-0.000032	-0.000165	0.000000	
0.254000	-0.000001	0.000555	-0.000003	-0.013758	-0.000032	-0.000165	0.000000	
0.256000	-0.000001	0.000550	-0.000003	-0.013798	-0.000032	-0.000165	0.000000	
0.258000	-0.000001	0.000544	-0.000003	-0.013837	-0.000032	-0.000165	0.000000	
0.260000	-0.000001	0.000539	-0.000004	-0.013875	-0.000031	-0.000165	0.000000	
0.262000	-0.000001	0.000534	-0.000004	-0.013913	-0.000031	-0.000165	0.000000	
0.264000	-0.000001	0.000529	-0.000004	-0.013950	-0.000031	-0.000165	0.000000	
0.266000	-0.000001	0.000524	-0.000004	-0.013987	-0.000031	-0.000165	0.000000	
0.268000	-0.000001	0.000519	-0.000004	-0.014023	-0.000031	-0.000165	0.000000	
0.270000	-0.000001	0.000514	-0.000004	-0.014058	-0.000031	-0.000165	0.000000	
0.272000	-0.000001	0.000509	-0.000004	-0.014093	-0.000031	-0.000165	0.000000	
0.274000	-0.000001	0.000504	-0.000004	-0.014127	-0.000031	-0.000164	0.000000	
0.276000	-0.000001	0.000500	-0.000004	-0.014161	-0.000031	-0.000164	0.000000	
0.278000	-0.000001	0.000495	-0.000004	-0.014195	-0.000031	-0.000164	0.000000	
0.280000	-0.000001	0.000490	-0.000004	-0.014227	-0.000031	-0.000164	0.000000	
0.282000	-0.000001	0.000486	-0.000004	-0.014260	-0.000031	-0.000164	0.000000	
0.284000	-0.000001	0.000481	-0.000005	-0.014291	-0.000031	-0.000164	0.000000	
0.286000	-0.000002	0.000477	-0.000005	-0.014323	-0.000031	-0.000164	0.000000	
0.288000	-0.000002	0.000473	-0.000005	-0.014353	-0.000031	-0.000164	0.000000	
0.290000	-0.000002	0.000469	-0.000005	-0.014384	-0.000031	-0.000163	0.000000	
0.292000	-0.000002	0.000464	-0.000005	-0.014413	-0.000031	-0.000163	0.000000	
0.294000	-0.000002	0.000460	-0.000005	-0.014443	-0.000031	-0.000163	0.000000	
0.296000	-0.000002	0.000456	-0.000005	-0.014472	-0.000031	-0.000163	0.000000	
0.298000	-0.000002	0.000452	-0.000005	-0.014500	-0.000031	-0.000163	0.000000	
0.300000	-0.000002	0.000448	-0.000005	-0.014528	-0.000031	-0.000163	0.000000	
0.302000	-0.000002	0.000445	-0.000005	-0.014555	-0.000031	-0.000163	0.000000	
0.304000	-0.000002	0.000441	-0.000005	-0.014582	-0.000031	-0.000162	0.000000	
0.306000	-0.000002	0.000437	-0.000005	-0.014609	-0.000031	-0.000162	0.000000	
0.308000	-0.000002	0.000433	-0.000005	-0.014635	-0.000031	-0.000162	0.000000	
0.310000	-0.000002	0.000430	-0.000005	-0.014661	-0.000031	-0.000162	0.000000	
0.312000	-0.000002	0.000426	-0.000005	-0.014686	-0.000031	-0.000162	0.000000	
0.314000	-0.000002	0.000423	-0.000005	-0.014711	-0.000031	-0.000161	0.000000	
0.316000	-0.000002	0.000420	-0.000005	-0.014736	-0.000031	-0.000161	0.000000	
0.318000	-0.000002	0.000416	-0.000005	-0.014760	-0.000031	-0.000161	0.000000	
0.320000	-0.000002	0.000413	-0.000005	-0.014783	-0.000031	-0.000161	0.000000	
0.322000	-0.000002	0.000410	-0.000005	-0.014807	-0.000031	-0.000161	0.000000	
0.324000	-0.000002	0.000407	-0.000005	-0.014830	-0.000031	-0.000160	0.000000	
0.326000	-0.000002	0.000404	-0.000005	-0.014852	-0.000031	-0.000160	0.000000	
0.328000	-0.000002	0.000401	-0.000005	-0.014874	-0.000031	-0.000160	0.000000	
0.330000	-0.000002	0.000398	-0.000005	-0.014896	-0.000030	-0.000160	0.000000	
0.332000	-0.000002	0.000395	-0.000005	-0.014918	-0.000030	-0.000160	0.000000	
0.334000	-0.000002	0.000392	-0.000005	-0.014939	-0.000030	-0.000159	0.000000	
0.336000	-0.000002	0.000389	-0.000005	-0.014960	-0.000030	-0.000159	0.000000	
0.338000	-0.000002	0.000387	-0.000005	-0.014980	-0.000030	-0.000159	0.000000	
0.340000	-0.000002	0.000384	-0.000005	-0.015000	-0.000030	-0.000159	0.000000	
0.342000	-0.000002	0.000382	-0.000006	-0.015020	-0.000030	-0.000159	0.000000	
0.344000	-0.000002	0.000379	-0.000006	-0.015039	-0.000030	-0.000158	0.000000	
0.346000	-0.000002	0.000377	-0.000006	-0.015059	-0.000030	-0.000158	0.000000	
0.348000	-0.000002	0.000374	-0.000006	-0.015077	-0.000030	-0.000158	0.000000	
0.350000	-0.000002	0.000372	-0.000006	-0.015096	-0.000030	-0.000158	0.000000	
0.352000	-0.000002	0.000370	-0.000006	-0.015114	-0.000030	-0.000157	0.000000	
0.354000	-0.000002	0.000368	-0.000006	-0.015132	-0.000030	-0.000157	0.000000	
0.356000	-0.000002	0.000366	-0.000006	-0.015149	-0.000030	-0.000157	0.000000	
0.358000	-0.000002	0.000364	-0.000006	-0.015167	-0.000030	-0.000157	0.000000	
0.360000	-0.000002	0.000362	-0.000006	-0.015184	-0.000030	-0.000157	0.000000	
0.362000	-0.000002	0.000360	-0.000006	-0.015200	-0.000030	-0.000156	0.000000	
0.364000	-0.000002	0.000358	-0.000006	-0.015217	-0.000030	-0.000156	0.000000	
0.366000	-0.000002	0.000356	-0.000006	-0.015233	-0.000030	-0.000156	0.000000	
0.368000	-0.000002	0.000354	-0.000006	-0.015249	-0.000030	-0.000156	0.000000	
0.370000	-0.000002	0.000353	-0.000006	-0.015264	-0.000030	-0.000155	0.000000	
0.372000	-0.000002	0.000351	-0.000006	-0.015280	-0.000029	-0.000155	0.000000	
0.374000	-0.000002	0.000349	-0.000005	-0.015295	-0.000029	-0.000155	0.000000	
0.376000	-0.000002	0.000348	-0.000005	-0.015310	-0.000029	-0.000155	0.000000	
0.378000	-0.000002	0.000346	-0.000005	-0.015324	-0.000029	-0.000155	0.000000	
0.380000	-0.000002	0.000345	-0.000005	-0.015339	-0.000029	-0.000154	0.000000	
0.382000	-0.000002	0.000343	-0.000005	-0.015353	-0.000029	-0.000154	0.000000	
0.384000	-0.000002	0.000342	-0.000005	-0.015367	-0.000029	-0.000154	0.000000	
0.386000	-0.000002	0.000341	-0.000005	-0.015380	-0.000029	-0.000154	0.000000	
0.388000	-0.000002	0.000339	-0.000005	-0.015393	-0.000029	-0.000153	0.000000	
0.390000	-0.000002	0.000338	-0.000005	-0.015407	-0.000029	-0.000153	0.000000	
0.392000	-0.000002	0.000337	-0.000005	-0.015420	-0.000029	-0.000153	0.000000	
0.394000	-0.000002	0.000336	-0.000005	-0.015432	-0.000029	-0.000153	0.000000	
0.396000	-0.000002	0.000335	-0.000005	-0.015445	-0.000029	-0.000153	0.000000	
0.398000	-0.000002	0.000334	-0.000005	-0.015457	-0.000029	-0.000152	0.000000	
0.400000	-0.000002	0.000333	-0.000005	-0.015469	-0.000029	-0.000152	0.000000	
0.402000	-0.000002	0.000332	-0.000005	-0.015481	-0.000029	-0.000152	0.000000	
0.404000	-0.000002	0.000331	-0.000005	-0.015492	-0.000029	-0.000152	0.000000	
0.406000	-0.000002	0.000330	-0.000005	-0.015504	-0.000029	-0.000151	0.000000	
0.408000	-0.000002	0.000329	-0.000005	-0.015515	-0.000029	-0.000151	0.000000	
0.410000	-0.000002	0.000329	-0.000005	-0.015526	-0.000029	-0.000151	0.000000	
0.412000	-0.000002	0.000328	-0.000005	-0.015537	-0.000029	-0.000151	0.000000	
0.414000	-0.000002	0.000327	-0.000005	-0.015548	-0.000029	-0.000151	0.000000	
0.416000	-0.000002	0.000327	-0.000005	-0.015558	-0.000028	-0.000150	0.000000	
0.418000	-0.000002	0.000326	-0.000005	-0.015568	-0.000028	-0.000150	0.000000	
0.420000	-0.000002	0.000326	-0.000005	-0.015578	-0.000028	-0.000150	0.000000	
0.422000	-0.000002	0.000325	-0.000005	-0.015588	-0.000028	-0.000150	0.000000	
0.424000	-0.000002	0.000325	-0.000005	-0.015598	-0.000028	-0.000150	0.000000	
0.426000	-0.000002	0.000324	-0.000005	-0.015608	-0.000028	-0.000149	0.000000	
0.428000	-0.000002	0.000324	-0.000005	-0.015617	-0.000028	-0.000149	0.000000	
0.430000	-0.000002	0.000323	-0.000005	-0.015626	-0.000028	-0.000149	0.000000	
0.432000	-0.000002	0.000323	-0.000005	-0.015635	-0.000028	-0.000149	0.000000	
0.434000	-0.000002	0.000323	-0.000005	-0.015644	-0.000028	-0.000149	0.000000	
0.436000	-0.000002	0.000322	-0.000005	-0.015653	-0.000028	-0.000148	0.000000	
0.438000	-0.000002	0.000322	-0.000005	-0.015662	-0.000028	-0.000148	0.000000	
0.440000	-0.000002	0.000322	-0.000005	-0.015670	-0.000028	-0.000148	0.000000	
0.442000	-0.000002	0.000322	-0.000005	-0.015678	-0.000028	-0.000148	0.000000	
0.444000	-0.000002	0.000322	-0.000005	-0.015687	-0.000028	-0.000148	0.000000	
0.446000	-0.000002	0.000322	-0.000005	-0.015695	-0.000028	-0.000147	0.000000	
0.448000	-0.000002	0.000322	-0.000005	-0.015702	-0.000028	-0.000147	0.000000	
0.450000	-0.000002	0.000322	-0.000005	-0.015710	-0.000028	-0.000147	0.000000	
0.452000	-0.000002	0.000322	-0.000005	-0.015718	-0.000028	-0.000147	0.000000	
0.454000	-0.000002	0.000322	-0.000005	-0.015725	-0.000028	-0.000147	0.000000	
0.456000	-0.000002	0.000322	-0.000004	-0.015733	-0.000028	-0.000146	0.000000	
0.458000	-0.000002	0.000322	-0.000004	-0.015740	-0.000028	-0.000146	0.000000	
0.460000	-0.000002	0.000322	-0.000004	-0.015747	-0.000028	-0.000146	0.000000	
0.462000	-0.000002	0.000322	-0.000004	-0.015754	-0.000028	-0.000146	0.000000	
0.464000	-0.000002	0.000322	-0.000004	-0.015761	-0.000028	-0.000146	0.000000	
0.466000	-0.000002	0.000322	-0.000004	-0.015767	-0.000027	-0.000146	0.000000	
0.468000	-0.000002	0.000323	-0.000004	-0.015774	-0.000027	-0.000145	0.000000	
0.470000	-0.000002	0.000323	-0.000004	-0.015780	-0.000027	-0.000145	0.000000	
0.472000	-0.000002	0.000323	-0.000004	-0.015787	-0.000027	-0.000145	0.000000	
0.474000	-0.000002	0.000323	-0.000004	-0.015793	-0.000027	-0.000145	0.000000	
0.476000	-0.000002	0.000324	-0.000004	-0.015799	-0.000027	-0.000145	0.000000	
0.478000	-0.000002	0.000324	-0.000004	-0.015805	-0.000027	-0.000145	0.000000	
0.480000	-0.000002	0.000324	-0.000004	-0.015811	-0.000027	-0.000144	0.000000	
0.482000	-0.000002	0.000325	-0.000004	-0.015816	-0.000027	-0.000144	0.000000	
0.484000	-0.000002	0.000325	-0.000004	-0.015822	-0.000027	-0.000144	0.000000	
0.486000	-0.000002	0.000326	-0.000004	-0.015828	-0.000027	-0.000144	0.000000	
0.488000	-0.000002	0.000326	-0.000004	-0.015833	-0.000027	-0.000144	0.000000	
0.490000	-0.000002	0.000327	-0.000004	-0.015838	-0.000027	-0.000144	0.000000	
0.492000	-0.000002	0.000327	-0.000004	-0.015844	-0.000027	-0.000143	0.000000	
0.494000	-0.000002	0.000328	-0.000004	-0.015849	-0.000027	-0.000143	0.000000	
0.496000	-0.000002	0.000328	-0.000004	-0.015854	-0.000027	-0.000143	0.000000	
0.498000	-0.000002	0.000329	-0.000004	-0.015859	-0.000027	-0.000143	0.000000	
0.500000	-0.000002	0.000329	-0.000004	-0.015864	-0.000027	-0.000143	0.000000	
0.502000	-0.000002	0.000330	-0.000004	-0.015869	-0.000027	-0.000143	0.000000	
0.504000	-0.000002	0.000330	-0.000004	-0.015873	-0.000027	-0.000143	0.000000	
0.506000	-0.000002	0.000331	-0.000004	-0.015878	-0.000027	-0.000142	0.000000	
0.508000	-0.000002	0.000332	-0.000004	-0.015882	-0.000027	-0.000142	0.000000	
0.510000	-0.000002	0.000332	-0.000003	-0.015887	-0.000027	-0.000142	0.000000	
0.512000	-0.000002	0.000333	-0.000003	-0.015891	-0.000027	-0.000142	0.000000	
0.514000	-0.000002	0.000334	-0.000003	-0.015895	-0.000027	-0.000142	0.000000	
0.516000	-0.000002	0.000334	-0.000003	-0.015900	-0.000027	-0.000142	0.000000	
0.518000	-0.000002	0.000335	-0.000003	-0.015904	-0.000027	-0.000142	0.000000	
0.520000	-0.000002	0.000336	-0.000003	-0.015908	-0.000027	-0.000142	0.000000	
0.522000	-0.000002	0.000337	-0.000003	-0.015912	-0.000027	-0.000141	0.000000	
0.524000	-0.000001	0.000416	-0.000883	-0.016180	0.000815	0.000242	0.000016	
0.526000	-0.000066	0.000530	-0.001102	-0.016489	0.000370	0.000165	0.000300	
0.528000	-0.000134	0.000675	-0.001849	-0.016836	0.000555	-0.000141	0.000078	
0.530000	-0.000245	0.000841	-0.002194	-0.017187	0.000037	-0.000513	0.000222	
0.532000	-0.000358	0.001027	-0.002855	-0.017544	0.000015	-0.000912	0.000025	
0.534000	-0.000499	0.001228	-0.003265	-0.017890	-0.000366	-0.001276	0.000101	
0.536000	-0.000642	0.001446	-0.003863	-0.018230	-0.000394	-0.001606	-0.000025	
0.538000	-0.000801	0.001676	-0.004303	-0.018554	-0.000615	-0.001878	0.000029	
0.540000	-0.000961	0.001920	-0.004854	-0.018867	-0.000608	-0.002106	-0.000041	
0.542000	-0.001131	0.002177	-0.005305	-0.019163	-0.000716	-0.002281	-0.000000	
0.544000	-0.001301	0.002445	-0.005820	-0.019446	-0.000686	-0.002417	-0.000036	
0.546000	-0.001477	0.002725	-0.006271	-0.019713	-0.000730	-0.002513	-0.000007	
0.548000	-0.001652	0.003016	-0.006759	-0.019966	-0.000692	-0.002580	-0.000026	
0.550000	-0.001829	0.003318	-0.007204	-0.020205	-0.000703	-0.002620	-0.000006	
0.552000	-0.002006	0.003631	-0.007669	-0.020431	-0.000668	-0.002638	-0.000017	
0.554000	-0.002185	0.003954	-0.008105	-0.020643	-0.000664	-0.002639	-0.000005	
0.556000	-0.002362	0.004287	-0.008551	-0.020843	-0.000633	-0.002626	-0.000011	
0.558000	-0.002539	0.004630	-0.008977	-0.021030	-0.000623	-0.002600	-0.000004	
0.560000	-0.002716	0.004982	-0.009406	-0.021205	-0.000597	-0.002566	-0.000008	
0.562000	-0.002891	0.005343	-0.009820	-0.021369	-0.000584	-0.002525	-0.000004	
0.564000	-0.003065	0.005932	-0.012800	-0.022259	0.001885	-0.001410	0.000044	
0.566000	-0.003435	0.006628	-0.013835	-0.023248	0.000601	-0.001572	0.000869	
0.568000	-0.003814	0.007416	-0.016416	-0.024335	0.001182	-0.002372	0.000216	
0.570000	-0.004318	0.008272	-0.017803	-0.025421	-0.000303	-0.003351	0.000642	
0.572000	-0.004831	0.009191	-0.020118	-0.026515	-0.000322	-0.004409	0.000062	
0.574000	-0.005425	0.010161	-0.021682	-0.027568	-0.001410	-0.005364	0.000293	
0.576000	-0.006025	0.011181	-0.023800	-0.028593	-0.001455	-0.006225	-0.000078	
0.578000	-0.006674	0.012245	-0.025441	-0.029565	-0.002083	-0.006923	0.000084	
0.580000	-0.007327	0.013352	-0.027408	-0.030495	-0.002035	-0.007494	-0.000122	
0.582000	-0.008009	0.014498	-0.029069	-0.031369	-0.002337	-0.007919	0.000000	
0.584000	-0.008692	0.015684	-0.030920	-0.032197	-0.002227	-0.008234	-0.000109	
0.586000	-0.009393	0.016908	-0.032571	-0.032972	-0.002343	-0.008438	-0.000020	
0.588000	-0.010093	0.018167	-0.034328	-0.033702	-0.002216	-0.008560	-0.000079	
0.590000	-0.010804	0.019462	-0.035954	-0.034382	-0.002238	-0.008604	-0.000020	
0.592000	-0.011513	0.020791	-0.037634	-0.035017	-0.002120	-0.008592	-0.000053	
0.594000	-0.012227	0.022152	-0.039223	-0.035607	-0.002098	-0.008528	-0.000016	
0.596000	-0.012940	0.023545	-0.040836	-0.036155	-0.001995	-0.008427	-0.000036	
0.598000	-0.013655	0.024969	-0.042384	-0.036661	-0.001954	-0.008293	-0.000014	
0.600000	-0.014369	0.026423	-0.043937	-0.037127	-0.001865	-0.008135	-0.000027	
0.602000	-0.015084	0.027905	-0.045442	-0.037554	-0.001816	-0.007958	-0.000014	
0.604000	-0.015798	0.029414	-0.046940	-0.037943	-0.001739	-0.007766	-0.000022	
0.606000	-0.016530	0.031189	-0.051224	-0.039099	0.001022	-0.006407	0.000043	
0.608000	-0.017485	0.033101	-0.053394	-0.040355	-0.000305	-0.006411	0.000950	
0.610000	-0.018465	0.035130	-0.057198	-0.041692	0.000346	-0.007144	0.000244	
0.612000	-0.019587	0.037251	-0.059732	-0.043012	-0.001210	-0.008064	0.000701	
0.614000	-0.020733	0.039454	-0.063211	-0.044315	-0.001240	-0.009087	0.000078	
0.616000	-0.021968	0.041728	-0.065912	-0.045556	-0.002364	-0.009986	0.000313	
0.618000	-0.023222	0.044068	-0.069144	-0.046742	-0.002426	-0.010790	-0.000078	
0.620000	-0.024532	0.046469	-0.071898	-0.047851	-0.003047	-0.011407	0.000079	
0.622000	-0.025856	0.048928	-0.074939	-0.048891	-0.003001	-0.011890	-0.000131	
0.624000	-0.027215	0.051442	-0.077682	-0.049854	-0.003266	-0.012205	-0.000015	
0.626000	-0.028585	0.054008	-0.080571	-0.050744	-0.003145	-0.012404	-0.000118	
0.628000	-0.029977	0.056623	-0.083270	-0.051560	-0.003209	-0.012476	-0.000036	
0.630000	-0.031377	0.059288	-0.086034	-0.052305	-0.003062	-0.012461	-0.000086	
0.632000	-0.032792	0.061998	-0.088672	-0.052981	-0.003030	-0.012358	-0.000034	
0.634000	-0.034214	0.064752	-0.091329	-0.053591	-0.002885	-0.012196	-0.000059	
0.636000	-0.035646	0.067550	-0.093897	-0.054135	-0.002811	-0.011977	-0.000028	
0.638000	-0.037084	0.070388	-0.096457	-0.054618	-0.002679	-0.011720	-0.000041	
0.640000	-0.038531	0.073264	-0.098951	-0.055041	-0.002589	-0.011428	-0.000024	
0.642000	-0.039984	0.076179	-0.101423	-0.055406	-0.002470	-0.011113	-0.000032	
0.644000	-0.041444	0.079128	-0.103842	-0.055715	-0.002376	-0.010777	-0.000022	
0.646000	-0.043070	0.082604	-0.112072	-0.057609	0.003435	-0.008088	0.000097	
0.648000	-0.045170	0.086370	-0.116207	-0.059829	0.000934	-0.008038	0.002032	
0.650000	-0.047414	0.090354	-0.123354	-0.062194	0.001989	-0.009745	0.000641	
0.652000	-0.049951	0.094522	-0.128342	-0.064591	-0.000989	-0.011765	0.001482	
0.654000	-0.052611	0.098838	-0.134836	-0.066939	-0.001465	-0.014103	0.000309	
0.656000	-0.055455	0.103290	-0.140185	-0.069202	-0.003577	-0.016133	0.000637	
0.658000	-0.058397	0.107859	-0.146232	-0.071341	-0.004082	-0.017999	-0.000043	
0.660000	-0.061460	0.112539	-0.151670	-0.073352	-0.005188	-0.019443	0.000133	
0.662000	-0.064599	0.117320	-0.157394	-0.075216	-0.005381	-0.020611	-0.000182	
0.664000	-0.067821	0.122198	-0.162785	-0.076938	-0.005791	-0.021411	-0.000059	
0.666000	-0.071104	0.127166	-0.168261	-0.078512	-0.005739	-0.021957	-0.000178	
0.668000	-0.074447	0.132222	-0.173541	-0.079946	-0.005775	-0.022228	-0.000093	
0.670000	-0.077842	0.137359	-0.178815	-0.081239	-0.005601	-0.022304	-0.000128	
0.672000	-0.081285	0.142576	-0.183959	-0.082399	-0.005472	-0.022193	-0.000075	
0.674000	-0.084772	0.147868	-0.189057	-0.083428	-0.005257	-0.021945	-0.000081	
0.676000	-0.088301	0.153231	-0.194055	-0.084333	-0.005069	-0.021577	-0.000051	
0.678000	-0.091871	0.158663	-0.198991	-0.085118	-0.004852	-0.021120	-0.000050	
0.680000	-0.095479	0.164159	-0.203843	-0.085788	-0.004651	-0.020589	-0.000036	
0.682000	-0.099125	0.169717	-0.208626	-0.086348	-0.004444	-0.020005	-0.000034	
0.684000	-0.102809	0.175332	-0.213333	-0.086802	-0.004248	-0.019378	-0.000028	
0.686000	-0.106529	0.181003	-0.217970	-0.087155	-0.004053	-0.018722	-0.000027	
0.688000	-0.110285	0.186724	-0.222536	-0.087410	-0.003866	-0.018045	-0.000024	
0.690000	-0.113209	0.191692	-0.216258	-0.084874	-0.014620	-0.021185	-0.000301	
0.692000	-0.115374	0.196141	-0.215884	-0.081146	-0.011046	-0.020701	-0.004023	
0.694000	-0.117062	0.200291	-0.211412	-0.077002	-0.011621	-0.016329	-0.001788	
0.696000	-0.118301	0.204157	-0.209248	-0.072490	-0.006633	-0.011296	-0.002879	
0.698000	-0.119229	0.207824	-0.205396	-0.067889	-0.004297	-0.005489	-0.001118	
0.700000	-0.119872	0.211304	-0.202580	-0.063241	-0.000398	-0.000120	-0.001219	
0.702000	-0.120306	0.214632	-0.199051	-0.058658	0.001639	0.004940	-0.000251	
0.704000	-0.120551	0.217816	-0.196045	-0.054163	0.003900	0.009270	-0.000243	
0.706000	-0.120651	0.220870	-0.192737	-0.049798	0.004984	0.013011	0.000169	
0.708000	-0.120622	0.223798	-0.189720	-0.045569	0.006010	0.016060	0.000113	
0.710000	-0.120491	0.226607	-0.186579	-0.041488	0.006384	0.018550	0.000241	
0.712000	-0.120268	0.229297	-0.183612	-0.037554	0.006713	0.020496	0.000156	
0.714000	-0.119971	0.231872	-0.180604	-0.033766	0.006721	0.022007	0.000175	
0.716000	-0.119607	0.234334	-0.177710	-0.030120	0.006732	0.023127	0.000101	
0.718000	-0.119189	0.236685	-0.174812	-0.026612	0.006600	0.023941	0.000093	
0.720000	-0.118721	0.238926	-0.171996	-0.023236	0.006495	0.024492	0.000044	
0.722000	-0.118213	0.241060	-0.169197	-0.019987	0.006332	0.024837	0.000037	
0.724000	-0.117667	0.243087	-0.166461	-0.016861	0.006199	0.025010	0.000011	
0.726000	-0.117091	0.245010	-0.163752	-0.013853	0.006043	0.025050	0.000009	
0.728000	-0.116487	0.246831	-0.161097	-0.010959	0.005911	0.024981	-0.000002	
0.730000	-0.115859	0.248553	-0.158474	-0.008174	0.005770	0.024828	-0.000001	
0.732000	-0.115210	0.250176	-0.155898	-0.005495	0.005646	0.024606	-0.000005	
0.734000	-0.114542	0.251704	-0.153357	-0.002919	0.005519	0.024333	-0.000001	
0.736000	-0.113859	0.253137	-0.150860	-0.000443	0.005403	0.024018	-0.000002	
0.738000	-0.113161	0.254480	-0.148400	0.001938	0.005287	0.023672	0.000001	
0.740000	-0.112451	0.255732	-0.145980	0.004225	0.005177	0.023302	0.000002	
0.742000	-0.111730	0.256897	-0.143597	0.006422	0.005067	0.022915	0.000004	
0.744000	-0.111000	0.257977	-0.141253	0.008531	0.004962	0.022516	0.000005	
0.746000	-0.110261	0.258973	-0.138945	0.010555	0.004858	0.022107	0.000007	
0.748000	-0.109515	0.259887	-0.136675	0.012496	0.004758	0.021693	0.000008	
0.750000	-0.108763	0.260722	-0.134441	0.014357	0.004658	0.021276	0.000009	
0.752000	-0.108005	0.261480	-0.132242	0.016140	0.004561	0.020859	0.000010	
0.754000	-0.107243	0.262161	-0.130079	0.017847	0.004465	0.020442	0.000011	
0.756000	-0.106476	0.262769	-0.127951	0.019480	0.004372	0.020027	0.000011	
0.758000	-0.105707	0.263305	-0.125856	0.021042	0.004280	0.019615	0.000012	
0.760000	-0.104934	0.263771	-0.123796	0.022534	0.004189	0.019208	0.000012	
0.762000	-0.104160	0.264168	-0.121768	0.023959	0.004101	0.018804	0.000013	
0.764000	-0.103383	0.264498	-0.119774	0.025318	0.004014	0.018406	0.000013	
0.766000	-0.102605	0.264764	-0.117812	0.026613	0.003928	0.018013	0.000014	
0.768000	-0.101826	0.264966	-0.115881	0.027846	0.003844	0.017626	0.000014	
0.770000	-0.101047	0.265106	-0.113982	0.029019	0.003761	0.017244	0.000014	
0.772000	-0.100267	0.265187	-0.112113	0.030134	0.003680	0.016869	0.000014	
0.774000	-0.099487	0.265209	-0.110275	0.031191	0.003600	0.016499	0.000014	
0.776000	-0.098708	0.265174	-0.108467	0.032194	0.003522	0.016136	0.000015	
0.778000	-0.097929	0.265083	-0.106688	0.033142	0.003445	0.015778	0.000015	
0.780000	-0.097152	0.264939	-0.104938	0.034039	0.003370	0.015427	0.000015	
0.782000	-0.096375	0.264742	-0.103217	0.034885	0.003295	0.015082	0.000015	
0.784000	-0.095600	0.264494	-0.101523	0.035682	0.003222	0.014742	0.000015	
0.786000	-0.094826	0.264197	-0.099858	0.036431	0.003151	0.014409	0.000015	
0.788000	-0.094054	0.263851	-0.098219	0.037133	0.003080	0.014082	0.000015	
0.790000	-0.093285	0.263458	-0.096607	0.037791	0.003011	0.013760	0.000015	
0.792000	-0.092517	0.263020	-0.095022	0.038405	0.002943	0.013444	0.000015	
0.794000	-0.091752	0.262538	-0.093462	0.038976	0.002876	0.013134	0.000015	
0.796000	-0.090989	0.262013	-0.091928	0.039507	0.002811	0.012830	0.000015	
0.798000	-0.090229	0.261446	-0.090419	0.039998	0.002747	0.012531	0.000015	
0.800000	-0.089472	0.260839	-0.088934	0.040449	0.002683	0.012237	0.000015	
0.802000	-0.088718	0.260192	-0.087474	0.040864	0.002621	0.011948	0.000015	
0.804000	-0.087967	0.259507	-0.086038	0.041242	0.002560	0.011665	0.000015	
0.806000	-0.087220	0.258786	-0.084626	0.041584	0.002500	0.011387	0.000015	
0.808000	-0.086475	0.258028	-0.083236	0.041893	0.002441	0.011115	0.000015	
0.810000	-0.085735	0.257236	-0.081870	0.042168	0.002384	0.010847	0.000015	
0.812000	-0.084998	0.256410	-0.080525	0.042412	0.002327	0.010584	0.000015	
0.814000	-0.084265	0.255552	-0.079203	0.042624	0.002271	0.010326	0.000015	
0.816000	-0.083536	0.254663	-0.077903	0.042806	0.002217	0.010072	0.000015	
0.818000	-0.082811	0.253743	-0.076624	0.042959	0.002163	0.009824	0.000015	
0.820000	-0.082089	0.252793	-0.075366	0.043083	0.002110	0.009580	0.000015	
0.822000	-0.081373	0.251815	-0.074129	0.043181	0.002059	0.009340	0.000015	
0.824000	-0.080660	0.250810	-0.072912	0.043252	0.002008	0.009105	0.000015	
0.826000	-0.079952	0.249778	-0.071715	0.043297	0.001958	0.008874	0.000015	
0.828000	-0.079248	0.248720	-0.070538	0.043318	0.001909	0.008648	0.000015	
0.830000	-0.078549	0.247638	-0.069380	0.043315	0.001861	0.008426	0.000015	
0.832000	-0.077854	0.246532	-0.068241	0.043289	0.001814	0.008208	0.000015	
0.834000	-0.077164	0.245403	-0.067121	0.043240	0.001768	0.007994	0.000015	
0.836000	-0.076479	0.244252	-0.066020	0.043170	0.001722	0.007785	0.000015	
0.838000	-0.075798	0.243080	-0.064937	0.043080	0.001678	0.007579	0.000015	
0.840000	-0.075123	0.241887	-0.063871	0.042969	0.001634	0.007377	0.000014	
0.842000	-0.074452	0.240675	-0.062824	0.042839	0.001591	0.007179	0.000014	
0.844000	-0.073786	0.239444	-0.061793	0.042690	0.001549	0.006985	0.000014	
0.846000	-0.073126	0.238195	-0.060780	0.042524	0.001508	0.006794	0.000014	
0.848000	-0.072470	0.236928	-0.059783	0.042340	0.001467	0.006607	0.000014	
0.850000	-0.071819	0.235645	-0.058803	0.042140	0.001427	0.006424	0.000014	
0.852000	-0.071174	0.234346	-0.057840	0.041924	0.001388	0.006244	0.000014	
0.854000	-0.070533	0.233032	-0.056892	0.041692	0.001350	0.006068	0.000014	
0.856000	-0.069898	0.231703	-0.055960	0.041446	0.001313	0.005896	0.000014	
0.858000	-0.069268	0.230361	-0.055043	0.041185	0.001276	0.005726	0.000014	
0.860000	-0.068643	0.229005	-0.054141	0.040911	0.001240	0.005560	0.000014	
0.862000	-0.068023	0.227637	-0.053255	0.040623	0.001204	0.005397	0.000014	
0.864000	-0.067409	0.226257	-0.052383	0.040323	0.001170	0.005238	0.000014	
0.866000	-0.066799	0.224866	-0.051526	0.040012	0.001136	0.005081	0.000014	
0.868000	-0.066195	0.223464	-0.050683	0.039688	0.001102	0.004928	0.000014	
0.870000	-0.065597	0.222052	-0.049854	0.039354	0.001070	0.004778	0.000013	
0.872000	-0.065003	0.220630	-0.049038	0.039009	0.001038	0.004631	0.000013	
0.874000	-0.064415	0.219200	-0.048237	0.038654	0.001006	0.004487	0.000013	
0.876000	-0.063832	0.217761	-0.047448	0.038290	0.000975	0.004345	0.000013	
0.878000	-0.063254	0.216314	-0.046673	0.037916	0.000945	0.004207	0.000013	
0.880000	-0.062681	0.214860	-0.045910	0.037534	0.000916	0.004071	0.000013	
0.882000	-0.062114	0.213399	-0.045161	0.037144	0.000887	0.003938	0.000013	
0.884000	-0.061552	0.211932	-0.044423	0.036745	0.000858	0.003808	0.000013	
0.886000	-0.060995	0.210459	-0.043698	0.036340	0.000830	0.003681	0.000013	
0.888000	-0.060443	0.208981	-0.042985	0.035927	0.000803	0.003556	0.000013	
0.890000	-0.059897	0.207497	-0.042284	0.035507	0.000777	0.003434	0.000013	
0.892000	-0.059355	0.206010	-0.041595	0.035081	0.000750	0.003314	0.000012	
0.894000	-0.058819	0.204518	-0.040917	0.034650	0.000725	0.003197	0.000012	
0.896000	-0.058288	0.203023	-0.040251	0.034212	0.000700	0.003082	0.000012	
0.898000	-0.057761	0.201524	-0.039595	0.033770	0.000675	0.002970	0.000012	
0.900000	-0.057240	0.200023	-0.038950	0.033322	0.000651	0.002860	0.000012	
0.902000	-0.056724	0.198519	-0.038317	0.032870	0.000628	0.002753	0.000012	
0.904000	-0.056213	0.197014	-0.037693	0.032414	0.000605	0.002647	0.000012	
0.906000	-0.055707	0.195507	-0.037080	0.031954	0.000582	0.002545	0.000012	
0.908000	-0.055205	0.193999	-0.036478	0.031490	0.000560	0.002444	0.000012	
0.910000	-0.054709	0.192489	-0.035885	0.031023	0.000538	0.002345	0.000012	
0.912000	-0.054217	0.190980	-0.035302	0.030552	0.000517	0.002249	0.000011	
0.914000	-0.053730	0.189470	-0.034729	0.030079	0.000497	0.002155	0.000011	
0.916000	-0.053248	0.187960	-0.034166	0.029603	0.000476	0.002062	0.000011	
0.918000	-0.052771	0.186451	-0.033611	0.029125	0.000457	0.001972	0.000011	
0.920000	-0.052298	0.184943	-0.033067	0.028645	0.000437	0.001884	0.000011	
0.922000	-0.051830	0.183436	-0.032531	0.028162	0.000418	0.001798	0.000011	
0.924000	-0.051367	0.181930	-0.032004	0.027679	0.000400	0.001714	0.000011	
0.926000	-0.050908	0.180426	-0.031486	0.027194	0.000382	0.001631	0.000011	
0.928000	-0.050453	0.178924	-0.030976	0.026707	0.000364	0.001551	0.000011	
0.930000	-0.050004	0.177424	-0.030475	0.026220	0.000347	0.001472	0.000011	
0.932000	-0.049558	0.175927	-0.029982	0.025732	0.000330	0.001395	0.000010	
0.934000	-0.049117	0.174433	-0.029498	0.025244	0.000313	0.001320	0.000010	
0.936000	-0.048680	0.172941	-0.029021	0.024755	0.000297	0.001247	0.000010	
0.938000	-0.048248	0.171453	-0.028552	0.024266	0.000281	0.001175	0.000010	
0.940000	-0.047820	0.169969	-0.028092	0.023777	0.000266	0.001105	0.000010	
0.942000	-0.047396	0.168488	-0.027639	0.023289	0.000251	0.001037	0.000010	
0.944000	-0.046977	0.167011	-0.027193	0.022800	0.000236	0.000970	0.000010	
0.946000	-0.046561	0.165539	-0.026755	0.022313	0.000222	0.000905	0.000010	
0.948000	-0.046150	0.164070	-0.026324	0.021826	0.000208	0.000842	0.000010	
0.950000	-0.045743	0.162607	-0.025900	0.021339	0.000194	0.000780	0.000010	
0.952000	-0.045339	0.161148	-0.025483	0.020854	0.000181	0.000719	0.000009	
0.954000	-0.044940	0.159694	-0.025073	0.020370	0.000168	0.000660	0.000009	
0.956000	-0.044545	0.158245	-0.024670	0.019887	0.000155	0.000603	0.000009	
0.958000	-0.044153	0.156802	-0.024274	0.019405	0.000143	0.000547	0.000009	
0.960000	-0.043765	0.155364	-0.023884	0.018926	0.000131	0.000492	0.000009	
0.962000	-0.043382	0.153932	-0.023501	0.018447	0.000119	0.000439	0.000009	
0.964000	-0.043002	0.152506	-0.023123	0.017971	0.000107	0.000387	0.000009	
0.966000	-0.042625	0.151085	-0.022753	0.017496	0.000096	0.000336	0.000009	
0.968000	-0.042253	0.149671	-0.022388	0.017023	0.000085	0.000287	0.000009	
0.970000	-0.041884	0.148263	-0.022029	0.016553	0.000075	0.000239	0.000009	
0.972000	-0.041518	0.146862	-0.021677	0.016084	0.000064	0.000192	0.000008	
0.974000	-0.041156	0.145467	-0.021330	0.015618	0.000054	0.000146	0.000008	
0.976000	-0.040798	0.144079	-0.020989	0.015155	0.000044	0.000102	0.000008	
0.978000	-0.040443	0.142697	-0.020653	0.014693	0.000035	0.000059	0.000008	
0.980000	-0.040092	0.141323	-0.020323	0.014235	0.000026	0.000016	0.000008	
0.982000	-0.039744	0.139955	-0.019998	0.013779	0.000017	-0.000024	0.000008	
0.984000	-0.039399	0.138595	-0.019679	0.013326	0.000008	-0.000064	0.000008	
0.986000	-0.039058	0.137242	-0.019365	0.012875	-0.000001	-0.000103	0.000008	
0.988000	-0.038719	0.135896	-0.019056	0.012427	-0.000009	-0.000141	0.000008	
0.990000	-0.038385	0.134558	-0.018753	0.011983	-0.000017	-0.000177	0.000008	
0.992000	-0.038053	0.133228	-0.018454	0.011541	-0.000025	-0.000213	0.000008	
0.994000	-0.037725	0.131905	-0.018160	0.011103	-0.000033	-0.000247	0.000008	
0.996000	-0.037399	0.130589	-0.017871	0.010667	-0.000040	-0.000281	0.000007	
0.998000	-0.037077	0.129282	-0.017587	0.010235	-0.000048	-0.000313	0.000007	
1.000000	-0.036758	0.127982	-0.017307	0.009806	-0.000055	-0.000345	0.000007	
1.002000	-0.036442	0.126690	-0.017032	0.009380	-0.000061	-0.000376	0.000007	
1.004000	-0.036129	0.125407	-0.016762	0.008958	-0.000068	-0.000405	0.000007	
1.006000	-0.035819	0.124131	-0.016496	0.008539	-0.000074	-0.000434	0.000007	
1.008000	-0.035512	0.122863	-0.016234	0.008123	-0.000081	-0.000462	0.000007	
1.010000	-0.035207	0.121604	-0.015977	0.007711	-0.000087	-0.000489	0.000007	
1.012000	-0.034906	0.120353	-0.015723	0.007302	-0.000093	-0.000516	0.000007	
1.014000	-0.034607	0.119110	-0.015474	0.006897	-0.000098	-0.000541	0.000007	
1.016000	-0.034312	0.117876	-0.015229	0.006495	-0.000104	-0.000566	0.000007	
1.018000	-0.034018	0.116650	-0.014988	0.006098	-0.000109	-0.000590	0.000007	
1.020000	-0.033728	0.115432	-0.014751	0.005703	-0.000114	-0.000613	0.000007	
1.022000	-0.033441	0.114223	-0.014518	0.005313	-0.000119	-0.000635	0.000006	
1.024000	-0.033156	0.113022	-0.014289	0.004925	-0.000124	-0.000657	0.000006	
1.026000	-0.032873	0.111830	-0.014063	0.004542	-0.000129	-0.000678	0.000006	
1.028000	-0.032594	0.110647	-0.013841	0.004163	-0.000133	-0.000698	0.000006	
1.030000	-0.032317	0.109472	-0.013623	0.003787	-0.000137	-0.000717	0.000006	
1.032000	-0.032042	0.108305	-0.013408	0.003415	-0.000142	-0.000736	0.000006	
1.034000	-0.031770	0.107147	-0.013196	0.003046	-0.000146	-0.000754	0.000006	
1.036000	-0.031501	0.105998	-0.012989	0.002682	-0.000150	-0.000771	0.000006	
1.038000	-0.031234	0.104858	-0.012784	0.002321	-0.000153	-0.000788	0.000006	
1.040000	-0.030969	0.103726	-0.012583	0.001964	-0.000157	-0.000804	0.000006	
1.042000	-0.030707	0.102603	-0.012385	0.001611	-0.000160	-0.000820	0.000006	
1.044000	-0.030447	0.101489	-0.012190	0.001261	-0.000164	-0.000835	0.000006	
1.046000	-0.030190	0.100383	-0.011999	0.000916	-0.000167	-0.000849	0.000006	
1.048000	-0.029935	0.099286	-0.011810	0.000574	-0.000170	-0.000863	0.000006	
1.050000	-0.029682	0.098198	-0.011625	0.000236	-0.000173	-0.000876	0.000006	
1.052000	-0.029432	0.097119	-0.011442	-0.000098	-0.000176	-0.000889	0.000006	
1.054000	-0.029184	0.096048	-0.011263	-0.000428	-0.000179	-0.000901	0.000005	
1.056000	-0.028938	0.094986	-0.011086	-0.000754	-0.000181	-0.000912	0.000005	
1.058000	-0.028694	0.093933	-0.010913	-0.001077	-0.000184	-0.000924	0.000005	
1.060000	-0.028453	0.092888	-0.010742	-0.001396	-0.000186	-0.000934	0.000005	
1.062000	-0.028213	0.091852	-0.010574	-0.001711	-0.000189	-0.000944	0.000005	
1.064000	-0.027976	0.090825	-0.010408	-0.002022	-0.000191	-0.000954	0.000005	
1.066000	-0.027741	0.089806	-0.010245	-0.002329	-0.000193	-0.000963	0.000005	
1.068000	-0.027508	0.088797	-0.010085	-0.002633	-0.000195	-0.000972	0.000005	
1.070000	-0.027277	0.087795	-0.009928	-0.002933	-0.000197	-0.000980	0.000005	
1.072000	-0.027048	0.086803	-0.009773	-0.003229	-0.000199	-0.000988	0.000005	
1.074000	-0.026822	0.085819	-0.009620	-0.003521	-0.000200	-0.000995	0.000005	
1.076000	-0.026597	0.084844	-0.009470	-0.003810	-0.000202	-0.001002	0.000005	
1.078000	-0.026374	0.083877	-0.009322	-0.004094	-0.000203	-0.001009	0.000005	
1.080000	-0.026153	0.082919	-0.009177	-0.004376	-0.000205	-0.001015	0.000005	
1.082000	-0.025934	0.081969	-0.009034	-0.004653	-0.000206	-0.001021	0.000005	
1.084000	-0.025718	0.081028	-0.008893	-0.004927	-0.000207	-0.001026	0.000005	
1.086000	-0.025503	0.080095	-0.008755	-0.005197	-0.000209	-0.001031	0.000005	
1.088000	-0.025289	0.079171	-0.008619	-0.005463	-0.000210	-0.001036	0.000005	
1.090000	-0.025078	0.078255	-0.008485	-0.005726	-0.000211	-0.001040	0.000005	
1.092000	-0.024869	0.077347	-0.008353	-0.005985	-0.000212	-0.001044	0.000004	
1.094000	-0.024661	0.076448	-0.008223	-0.006241	-0.000213	-0.001048	0.000004	
1.096000	-0.024456	0.075558	-0.008096	-0.006493	-0.000213	-0.001051	0.000004	
1.098000	-0.024252	0.074675	-0.007970	-0.006741	-0.000214	-0.001054	0.000004	
1.100000	-0.024050	0.073801	-0.007846	-0.006986	-0.000215	-0.001057	0.000004	
1.102000	-0.023849	0.072935	-0.007725	-0.007228	-0.000215	-0.001059	0.000004	
1.104000	-0.023651	0.072077	-0.007605	-0.007466	-0.000216	-0.001061	0.000004	
1.106000	-0.023454	0.071228	-0.007487	-0.007700	-0.000216	-0.001063	0.000004	
1.108000	-0.023259	0.070386	-0.007371	-0.007931	-0.000217	-0.001065	0.000004	
1.110000	-0.023065	0.069553	-0.007257	-0.008159	-0.000217	-0.001066	0.000004	
1.112000	-0.022873	0.068728	-0.007145	-0.008383	-0.000218	-0.001067	0.000004	
1.114000	-0.022683	0.067910	-0.007034	-0.008604	-0.000218	-0.001068	0.000004	
1.116000	-0.022495	0.067101	-0.006925	-0.008822	-0.000218	-0.001069	0.000004	
1.118000	-0.022308	0.066300	-0.006818	-0.009036	-0.000218	-0.001069	0.000004	
1.120000	-0.022122	0.065506	-0.006713	-0.009247	-0.000218	-0.001069	0.000004	
1.122000	-0.021939	0.064720	-0.006609	-0.009455	-0.000218	-0.001069	0.000004	
1.124000	-0.021757	0.063943	-0.006507	-0.009659	-0.000218	-0.001068	0.000004	
1.126000	-0.021576	0.063172	-0.006407	-0.009860	-0.000218	-0.001068	0.000004	
1.128000	-0.021397	0.062410	-0.006308	-0.010059	-0.000218	-0.001067	0.000004	
1.130000	-0.021220	0.061655	-0.006211	-0.010253	-0.000218	-0.001066	0.000004	
1.132000	-0.021044	0.060908	-0.006115	-0.010445	-0.000218	-0.001065	0.000004	
1.134000	-0.020870	0.060169	-0.006021	-0.010634	-0.000218	-0.001063	0.000004	
1.136000	-0.020697	0.059437	-0.005929	-0.010819	-0.000217	-0.001062	0.000004	
1.138000	-0.020525	0.058712	-0.005837	-0.011002	-0.000217	-0.001060	0.000004	
1.140000	-0.020355	0.057995	-0.005748	-0.011182	-0.000217	-0.001058	0.000004	
1.142000	-0.020187	0.057286	-0.005659	-0.011358	-0.000216	-0.001056	0.000003	
1.144000	-0.020020	0.056583	-0.005572	-0.011532	-0.000216	-0.001054	0.000003	
1.146000	-0.019854	0.055888	-0.005487	-0.011702	-0.000215	-0.001051	0.000003	
1.148000	-0.019690	0.055200	-0.005402	-0.011870	-0.000215	-0.001049	0.000003	
1.150000	-0.019527	0.054520	-0.005319	-0.012035	-0.000214	-0.001046	0.000003	
1.152000	-0.019366	0.053846	-0.005238	-0.012197	-0.000214	-0.001043	0.000003	
1.154000	-0.019205	0.053180	-0.005158	-0.012356	-0.000213	-0.001040	0.000003	
1.156000	-0.019047	0.052521	-0.005078	-0.012513	-0.000213	-0.001037	0.000003	
1.158000	-0.018889	0.051869	-0.005001	-0.012666	-0.000212	-0.001034	0.000003	
1.160000	-0.018733	0.051223	-0.004924	-0.012817	-0.000211	-0.001030	0.000003	
1.162000	-0.018579	0.050585	-0.004849	-0.012965	-0.000211	-0.001027	0.000003	
1.164000	-0.018425	0.049954	-0.004774	-0.013111	-0.000210	-0.001023	0.000003	
1.166000	-0.018273	0.049329	-0.004701	-0.013254	-0.000209	-0.001019	0.000003	
1.168000	-0.018122	0.048711	-0.004629	-0.013394	-0.000208	-0.001016	0.000003	
1.170000	-0.017973	0.048100	-0.004559	-0.013532	-0.000208	-0.001012	0.000003	
1.172000	-0.017824	0.047495	-0.004489	-0.013667	-0.000207	-0.001008	0.000003	
1.174000	-0.017677	0.046897	-0.004420	-0.013799	-0.000206	-0.001003	0.000003	
1.176000	-0.017531	0.046306	-0.004353	-0.013929	-0.000205	-0.000999	0.000003	
1.178000	-0.017387	0.045721	-0.004286	-0.014057	-0.000204	-0.000995	0.000003	
1.180000	-0.017244	0.045142	-0.004221	-0.014182	-0.000203	-0.000990	0.000003	
1.182000	-0.017101	0.044570	-0.004157	-0.014305	-0.000202	-0.000986	0.000003	
1.184000	-0.016960	0.044005	-0.004093	-0.014425	-0.000201	-0.000981	0.000003	
1.186000	-0.016821	0.043445	-0.004031	-0.014543	-0.000201	-0.000977	0.000003	
1.188000	-0.016682	0.042892	-0.003969	-0.014659	-0.000200	-0.000972	0.000003	
1.190000	-0.016545	0.042345	-0.003909	-0.014772	-0.000199	-0.000967	0.000003	
1.192000	-0.016408	0.041804	-0.003849	-0.014883	-0.000198	-0.000962	0.000003	
1.194000	-0.016273	0.041270	-0.003791	-0.014992	-0.000197	-0.000957	0.000003	
1.196000	-0.016139	0.040741	-0.003733	-0.015099	-0.000196	-0.000953	0.000003	
1.198000	-0.016006	0.040218	-0.003676	-0.015203	-0.000195	-0.000947	0.000003	
1.200000	-0.015874	0.039702	-0.003620	-0.015305	-0.000194	-0.000942	0.000003	
1.202000	-0.015744	0.039191	-0.003565	-0.015406	-0.000192	-0.000937	0.000003	
1.204000	-0.015614	0.038686	-0.003511	-0.015504	-0.000191	-0.000932	0.000003	
1.206000	-0.015486	0.038187	-0.003458	-0.015600	-0.000190	-0.000927	0.000003	
1.208000	-0.015358	0.037693	-0.003405	-0.015694	-0.000189	-0.000922	0.000002	
1.210000	-0.015740	0.037202	-0.002838	-0.015775	-0.000199	-0.000931	0.000003	
1.212000	-0.016479	0.036717	-0.002733	-0.015854	0.000511	-0.000911	0.000044	
1.214000	-0.017529	0.036236	-0.002351	-0.015921	0.000643	-0.000847	0.000279	
1.216000	-0.018799	0.035761	-0.002265	-0.015988	0.001009	-0.000785	0.000235	
1.218000	-0.020259	0.035293	-0.002019	-0.016051	0.000924	-0.000719	0.000339	
1.220000	-0.021852	0.034832	-0.001959	-0.016116	0.000978	-0.000675	0.000245	
1.222000	-0.023561	0.034377	-0.001805	-0.016180	0.000779	-0.000641	0.000263	
1.224000	-0.025348	0.033929	-0.001765	-0.016248	0.000701	-0.000628	0.000171	
1.226000	-0.027203	0.033487	-0.001668	-0.016315	0.000500	-0.000624	0.000162	
1.228000	-0.029102	0.033051	-0.001641	-0.016384	0.000400	-0.000633	0.000095	
1.230000	-0.031038	0.032621	-0.001578	-0.016452	0.000245	-0.000644	0.000086	
1.232000	-0.032995	0.032196	-0.001559	-0.016520	0.000166	-0.000661	0.000044	
1.234000	-0.034970	0.031777	-0.001517	-0.016588	0.000061	-0.000677	0.000039	
1.236000	-0.036953	0.031362	-0.001502	-0.016655	0.000008	-0.000694	0.000015	
1.238000	-0.038940	0.030953	-0.001473	-0.016720	-0.000058	-0.000709	0.000013	
1.240000	-0.040926	0.030549	-0.001461	-0.016785	-0.000090	-0.000723	0.000000	
1.242000	-0.042909	0.030150	-0.001440	-0.016848	-0.000130	-0.000734	0.000001	
1.244000	-0.044885	0.029756	-0.001430	-0.016910	-0.000149	-0.000744	-0.000007	
1.246000	-0.046853	0.029366	-0.001414	-0.016970	-0.000172	-0.000751	-0.000006	
1.248000	-0.049949	0.028974	-0.000261	-0.017005	-0.000197	-0.000791	-0.000007	
1.250000	-0.053829	0.028586	-0.000128	-0.017037	0.001369	-0.000760	0.000087	
1.252000	-0.058387	0.028200	0.000614	-0.017045	0.001657	-0.000632	0.000607	
1.254000	-0.063417	0.027822	0.000707	-0.017057	0.002456	-0.000507	0.000511	
1.256000	-0.068854	0.027451	0.001150	-0.017060	0.002258	-0.000375	0.000739	
1.258000	-0.074570	0.027088	0.001184	-0.017074	0.002365	-0.000290	0.000528	
1.260000	-0.080523	0.026733	0.001429	-0.017087	0.001915	-0.000230	0.000566	
1.262000	-0.086633	0.026385	0.001421	-0.017110	0.001731	-0.000214	0.000361	
1.264000	-0.092874	0.026044	0.001543	-0.017135	0.001279	-0.000219	0.000341	
1.266000	-0.099195	0.025710	0.001511	-0.017166	0.001051	-0.000249	0.000191	
1.268000	-0.105578	0.025382	0.001559	-0.017198	0.000703	-0.000287	0.000170	
1.270000	-0.111993	0.025059	0.001513	-0.017233	0.000524	-0.000335	0.000076	
1.272000	-0.118427	0.024741	0.001518	-0.017268	0.000290	-0.000381	0.000066	
1.274000	-0.124861	0.024428	0.001466	-0.017304	0.000171	-0.000427	0.000013	
1.276000	-0.131287	0.024120	0.001445	-0.017339	0.000025	-0.000468	0.000010	
1.278000	-0.137694	0.023817	0.001389	-0.017374	-0.000048	-0.000506	-0.000019	
1.280000	-0.144077	0.023518	0.001354	-0.017408	-0.000135	-0.000538	-0.000018	
1.282000	-0.150429	0.023223	0.001298	-0.017441	-0.000177	-0.000565	-0.000033	
1.284000	-0.156746	0.022932	0.001254	-0.017473	-0.000228	-0.000587	-0.000031	
1.286000	-0.163025	0.022646	0.001198	-0.017504	-0.000252	-0.000605	-0.000040	
1.288000	-0.169263	0.022363	0.001151	-0.017533	-0.000282	-0.000618	-0.000038	
1.290000	-0.176315	0.022079	0.001953	-0.017543	-0.000301	-0.000656	-0.000041	
1.292000	-0.183921	0.021799	0.001993	-0.017550	0.000870	-0.000636	0.000032	
1.294000	-0.192001	0.021521	0.002489	-0.017540	0.001084	-0.000545	0.000422	
1.296000	-0.200398	0.021249	0.002500	-0.017532	0.001678	-0.000454	0.000350	
1.298000	-0.209062	0.020982	0.002773	-0.017518	0.001526	-0.000359	0.000520	
1.300000	-0.217898	0.020723	0.002742	-0.017511	0.001602	-0.000298	0.000362	
1.302000	-0.226875	0.020469	0.002869	-0.017504	0.001261	-0.000256	0.000389	
1.304000	-0.235932	0.020223	0.002808	-0.017504	0.001121	-0.000246	0.000235	
1.306000	-0.245050	0.019981	0.002845	-0.017506	0.000781	-0.000251	0.000219	
1.308000	-0.254190	0.019745	0.002769	-0.017512	0.000610	-0.000274	0.000108	
1.310000	-0.263341	0.019513	0.002753	-0.017519	0.000350	-0.000302	0.000091	
1.312000	-0.272479	0.019286	0.002669	-0.017527	0.000216	-0.000337	0.000022	
1.314000	-0.281595	0.019064	0.002622	-0.017536	0.000043	-0.000371	0.000014	
1.316000	-0.290676	0.018845	0.002535	-0.017546	-0.000044	-0.000404	-0.000025	
1.318000	-0.299715	0.018630	0.002472	-0.017554	-0.000152	-0.000432	-0.000027	
1.320000	-0.308705	0.018418	0.002385	-0.017563	-0.000204	-0.000458	-0.000048	
1.322000	-0.317643	0.018210	0.002313	-0.017571	-0.000267	-0.000479	-0.000047	
1.324000	-0.326522	0.018006	0.002226	-0.017578	-0.000296	-0.000496	-0.000058	
1.326000	-0.335342	0.017804	0.002150	-0.017584	-0.000332	-0.000509	-0.000056	
1.328000	-0.344098	0.017606	0.002066	-0.017589	-0.000347	-0.000519	-0.000063	
1.330000	-0.352791	0.017411	0.001989	-0.017594	-0.000367	-0.000526	-0.000061	
1.332000	-0.362186	0.017214	0.002672	-0.017581	-0.000378	-0.000555	-0.000062	
1.334000	-0.372050	0.017020	0.002675	-0.017566	0.000673	-0.000533	0.000004	
1.336000	-0.382310	0.016827	0.003085	-0.017535	0.000868	-0.000448	0.000353	
1.338000	-0.392828	0.016639	0.003064	-0.017507	0.001400	-0.000364	0.000289	
1.340000	-0.403560	0.016456	0.003277	-0.017474	0.001266	-0.000277	0.000440	
1.342000	-0.414419	0.016278	0.003220	-0.017447	0.001333	-0.000221	0.000299	
1.344000	-0.425379	0.016106	0.003304	-0.017421	0.001030	-0.000182	0.000323	
1.346000	-0.436386	0.015938	0.003222	-0.017402	0.000905	-0.000173	0.000186	
1.348000	-0.447422	0.015775	0.003227	-0.017383	0.000602	-0.000176	0.000172	
1.350000	-0.458454	0.015616	0.003132	-0.017370	0.000450	-0.000196	0.000072	
1.352000	-0.469471	0.015461	0.003091	-0.017357	0.000220	-0.000221	0.000058	
1.354000	-0.480452	0.015309	0.002990	-0.017346	0.000101	-0.000251	-0.000004	
1.356000	-0.491391	0.015161	0.002924	-0.017335	-0.000052	-0.000280	-0.000010	
1.358000	-0.502275	0.015015	0.002821	-0.017326	-0.000129	-0.000309	-0.000045	
1.360000	-0.513099	0.014872	0.002741	-0.017316	-0.000223	-0.000333	-0.000046	
1.362000	-0.523856	0.014732	0.002640	-0.017306	-0.000268	-0.000355	-0.000065	
1.364000	-0.534543	0.014594	0.002553	-0.017296	-0.000323	-0.000373	-0.000064	
1.366000	-0.545156	0.014459	0.002453	-0.017285	-0.000348	-0.000387	-0.000074	
1.368000	-0.555694	0.014326	0.002363	-0.017274	-0.000379	-0.000398	-0.000072	
1.370000	-0.566153	0.014195	0.002267	-0.017263	-0.000392	-0.000406	-0.000077	
1.372000	-0.576534	0.014066	0.002177	-0.017251	-0.000408	-0.000412	-0.000075	
1.374000	-0.586835	0.013940	0.002084	-0.017239	-0.000414	-0.000415	-0.000078	
1.376000	-0.597572	0.013812	0.002509	-0.017214	-0.000423	-0.000432	-0.000075	
1.378000	-0.608589	0.013686	0.002473	-0.017190	0.000289	-0.000416	-0.000033	
1.380000	-0.619837	0.013561	0.002715	-0.017154	0.000419	-0.000357	0.000204	
1.382000	-0.631223	0.013440	0.002665	-0.017120	0.000780	-0.000299	0.000160	
1.384000	-0.642716	0.013321	0.002775	-0.017084	0.000690	-0.000239	0.000263	
1.386000	-0.654261	0.013206	0.002703	-0.017051	0.000738	-0.000200	0.000167	
1.388000	-0.665838	0.013094	0.002728	-0.017020	0.000534	-0.000173	0.000185	
1.390000	-0.677411	0.012986	0.002641	-0.016993	0.000451	-0.000165	0.000092	
1.392000	-0.688970	0.012881	0.002614	-0.016967	0.000249	-0.000166	0.000083	
1.394000	-0.700493	0.012778	0.002519	-0.016944	0.000148	-0.000178	0.000016	
1.396000	-0.711971	0.012677	0.002462	-0.016922	-0.000006	-0.000193	0.000007	
1.398000	-0.723392	0.012579	0.002366	-0.016902	-0.000084	-0.000212	-0.000035	
1.400000	-0.734751	0.012483	0.002293	-0.016882	-0.000186	-0.000230	-0.000039	
1.402000	-0.746040	0.012388	0.002196	-0.016863	-0.000236	-0.000247	-0.000062	
1.404000	-0.757256	0.012296	0.002116	-0.016844	-0.000298	-0.000263	-0.000062	
1.406000	-0.768394	0.012205	0.002021	-0.016825	-0.000326	-0.000276	-0.000075	
1.408000	-0.779454	0.012115	0.001937	-0.016806	-0.000362	-0.000287	-0.000074	
1.410000	-0.790431	0.012027	0.001845	-0.016788	-0.000377	-0.000295	-0.000080	
1.412000	-0.801327	0.011940	0.001760	-0.016769	-0.000396	-0.000301	-0.000078	
1.414000	-0.812138	0.011855	0.001671	-0.016750	-0.000403	-0.000306	-0.000082	
1.416000	-0.822865	0.011771	0.001587	-0.016731	-0.000413	-0.000308	-0.000080	
1.418000	-0.829693	0.011712	-0.002287	-0.016796	-0.000412	-0.000192	-0.000094	
1.420000	-0.833780	0.011657	-0.002766	-0.016860	-0.005681	-0.000317	-0.000417	
1.422000	-0.835482	0.011609	-0.005271	-0.017003	-0.006668	-0.000738	-0.002155	
1.424000	-0.835490	0.011552	-0.005617	-0.017125	-0.009325	-0.001151	-0.001834	
1.426000	-0.834026	0.011491	-0.007125	-0.017269	-0.008660	-0.001578	-0.002586	
1.428000	-0.831512	0.011417	-0.007280	-0.017375	-0.008999	-0.001850	-0.001880	
1.430000	-0.828089	0.011335	-0.008130	-0.017475	-0.007488	-0.002037	-0.001999	
1.432000	-0.824022	0.011245	-0.008147	-0.017538	-0.006862	-0.002078	-0.001314	
1.434000	-0.819401	0.011150	-0.008590	-0.017591	-0.005353	-0.002054	-0.001243	
1.436000	-0.814392	0.011049	-0.008524	-0.017618	-0.004590	-0.001943	-0.000746	
1.438000	-0.809052	0.010947	-0.008723	-0.017637	-0.003432	-0.001808	-0.000673	
1.440000	-0.803487	0.010842	-0.008613	-0.017641	-0.002832	-0.001640	-0.000364	
1.442000	-0.797733	0.010738	-0.008667	-0.017640	-0.002054	-0.001476	-0.000329	
1.444000	-0.791857	0.010632	-0.008533	-0.017630	-0.001656	-0.001309	-0.000153	
1.446000	-0.785882	0.010528	-0.008502	-0.017619	-0.001168	-0.001159	-0.000145	
1.448000	-0.779848	0.010424	-0.008357	-0.017603	-0.000924	-0.001018	-0.000049	
1.450000	-0.773772	0.010322	-0.008276	-0.017587	-0.000629	-0.000896	-0.000054	
1.452000	-0.767679	0.010220	-0.008126	-0.017568	-0.000484	-0.000786	-0.000001	
1.454000	-0.761577	0.010120	-0.008017	-0.017549	-0.000308	-0.000693	-0.000008	
1.456000	-0.755483	0.010021	-0.007865	-0.017529	-0.000222	-0.000611	0.000021	
1.458000	-0.749403	0.009923	-0.007740	-0.017509	-0.000115	-0.000542	0.000015	
1.460000	-0.743346	0.009826	-0.007589	-0.017489	-0.000064	-0.000481	0.000032	
1.462000	-0.737316	0.009731	-0.007456	-0.017469	0.000000	-0.000431	0.000028	
1.464000	-0.731319	0.009637	-0.007308	-0.017448	0.000031	-0.000387	0.000038	
1.466000	-0.725357	0.009544	-0.007171	-0.017428	0.000071	-0.000350	0.000035	
1.468000	-0.719433	0.009452	-0.007027	-0.017407	0.000090	-0.000318	0.000041	
1.470000	-0.713549	0.009361	-0.006890	-0.017387	0.000114	-0.000291	0.000039	
1.472000	-0.707707	0.009271	-0.006750	-0.017366	0.000125	-0.000268	0.000043	
1.474000	-0.701907	0.009183	-0.006615	-0.017346	0.000139	-0.000249	0.000042	
1.476000	-0.696151	0.009095	-0.006479	-0.017326	0.000146	-0.000232	0.000044	
1.478000	-0.690438	0.009009	-0.006347	-0.017307	0.000154	-0.000218	0.000043	
1.480000	-0.684770	0.008923	-0.006215	-0.017287	0.000158	-0.000205	0.000044	
1.482000	-0.679147	0.008839	-0.006086	-0.017267	0.000163	-0.000195	0.000044	
1.484000	-0.673568	0.008756	-0.005959	-0.017248	0.000165	-0.000186	0.000044	
1.486000	-0.668033	0.008673	-0.005834	-0.017229	0.000167	-0.000178	0.000044	
1.488000	-0.662543	0.008592	-0.005711	-0.017210	0.000168	-0.000171	0.000044	
1.490000	-0.657097	0.008511	-0.005590	-0.017192	0.000169	-0.000165	0.000044	
1.492000	-0.651696	0.008432	-0.005471	-0.017173	0.000168	-0.000160	0.000044	
1.494000	-0.646338	0.008353	-0.005354	-0.017155	0.000168	-0.000156	0.000043	
1.496000	-0.641024	0.008275	-0.005239	-0.017137	0.000168	-0.000152	0.000043	
1.498000	-0.635753	0.008198	-0.005126	-0.017119	0.000167	-0.000148	0.000043	
1.500000	-0.630525	0.008122	-0.005015	-0.017102	0.000166	-0.000145	0.000042	
1.502000	-0.625341	0.008047	-0.004907	-0.017084	0.000165	-0.000143	0.000042	
1.504000	-0.620198	0.007972	-0.004800	-0.017067	0.000164	-0.000140	0.000042	
1.506000	-0.615098	0.007899	-0.004695	-0.017050	0.000163	-0.000138	0.000041	
1.508000	-0.610040	0.007826	-0.004592	-0.017034	0.000162	-0.000136	0.000041	
1.510000	-0.605023	0.007754	-0.004490	-0.017017	0.000161	-0.000135	0.000041	
1.512000	-0.600048	0.007683	-0.004391	-0.017001	0.000160	-0.000133	0.000040	
1.514000	-0.595113	0.007612	-0.004293	-0.016985	0.000158	-0.000132	0.000040	
1.516000	-0.590219	0.007543	-0.004197	-0.016969	0.000157	-0.000130	0.000040	
1.518000	-0.585365	0.007474	-0.004103	-0.016954	0.000156	-0.000129	0.000039	
1.520000	-0.580551	0.007405	-0.004011	-0.016938	0.000154	-0.000128	0.000039	
1.522000	-0.575777	0.007338	-0.003920	-0.016923	0.000153	-0.000127	0.000039	
1.524000	-0.571042	0.007271	-0.003831	-0.016908	0.000152	-0.000126	0.000038	
1.526000	-0.566346	0.007205	-0.003743	-0.016894	0.000150	-0.000125	0.000038	
1.528000	-0.561688	0.007140	-0.003657	-0.016879	0.000149	-0.000125	0.000038	
1.530000	-0.557069	0.007075	-0.003573	-0.016865	0.000148	-0.000124	0.000038	
1.532000	-0.552487	0.007011	-0.003490	-0.016851	0.000146	-0.000123	0.000037	
1.534000	-0.547944	0.006947	-0.003409	-0.016837	0.000145	-0.000123	0.000037	
1.536000	-0.543438	0.006884	-0.003329	-0.016823	0.000144	-0.000122	0.000037	
1.538000	-0.538969	0.006822	-0.003251	-0.016810	0.000142	-0.000122	0.000036	
1.540000	-0.534536	0.006761	-0.003174	-0.016797	0.000141	-0.000121	0.000036	
1.542000	-0.530140	0.006700	-0.003099	-0.016784	0.000140	-0.000121	0.000036	
1.544000	-0.525781	0.006639	-0.003025	-0.016771	0.000138	-0.000120	0.000035	
1.546000	-0.521457	0.006580	-0.002952	-0.016758	0.000137	-0.000120	0.000035	
1.548000	-0.517169	0.006521	-0.002881	-0.016746	0.000136	-0.000119	0.000035	
1.550000	-0.512915	0.006462	-0.002811	-0.016734	0.000134	-0.000119	0.000034	
1.552000	-0.508697	0.006404	-0.002743	-0.016722	0.000133	-0.000119	0.000034	
1.554000	-0.504514	0.006347	-0.002675	-0.016710	0.000132	-0.000119	0.000034	
1.556000	-0.500365	0.006290	-0.002609	-0.016699	0.000131	-0.000118	0.000034	
1.558000	-0.496250	0.006234	-0.002544	-0.016687	0.000129	-0.000118	0.000033	
1.560000	-0.492169	0.006178	-0.002481	-0.016676	0.000128	-0.000118	0.000033	
1.562000	-0.488122	0.006123	-0.002418	-0.016665	0.000127	-0.000118	0.000033	
1.564000	-0.484108	0.006068	-0.002357	-0.016654	0.000126	-0.000117	0.000032	
1.566000	-0.480127	0.006014	-0.002297	-0.016644	0.000124	-0.000117	0.000032	
1.568000	-0.476178	0.005960	-0.002238	-0.016633	0.000123	-0.000117	0.000032	
1.570000	-0.472263	0.005907	-0.002180	-0.016623	0.000122	-0.000117	0.000032	
1.572000	-0.468379	0.005854	-0.002124	-0.016613	0.000121	-0.000117	0.000031	
1.574000	-0.464527	0.005802	-0.002068	-0.016603	0.000119	-0.000117	0.000031	
1.576000	-0.460707	0.005751	-0.002013	-0.016594	0.000118	-0.000117	0.000031	
1.578000	-0.456919	0.005700	-0.001960	-0.016584	0.000117	-0.000117	0.000031	
1.580000	-0.453161	0.005649	-0.001907	-0.016575	0.000116	-0.000117	0.000030	
1.582000	-0.449435	0.005599	-0.001856	-0.016566	0.000115	-0.000117	0.000030	
1.584000	-0.445739	0.005549	-0.001805	-0.016557	0.000114	-0.000117	0.000030	
1.586000	-0.442073	0.005500	-0.001756	-0.016548	0.000112	-0.000117	0.000030	
1.588000	-0.438438	0.005451	-0.001707	-0.016539	0.000111	-0.000117	0.000029	
1.590000	-0.434833	0.005403	-0.001660	-0.016531	0.000110	-0.000117	0.000029	
1.592000	-0.431257	0.005355	-0.001613	-0.016522	0.000109	-0.000117	0.000029	
1.594000	-0.427710	0.005308	-0.001567	-0.016514	0.000108	-0.000117	0.000029	
1.596000	-0.424193	0.005261	-0.001522	-0.016506	0.000107	-0.000117	0.000028	
1.598000	-0.420705	0.005214	-0.001478	-0.016498	0.000106	-0.000117	0.000028	
1.600000	-0.417245	0.005168	-0.001435	-0.016491	0.000105	-0.000117	0.000028	
1.602000	-0.413814	0.005122	-0.001393	-0.016483	0.000103	-0.000117	0.000028	
1.604000	-0.410411	0.005077	-0.001351	-0.016476	0.000102	-0.000117	0.000027	
1.606000	-0.407037	0.005032	-0.001310	-0.016468	0.000101	-0.000117	0.000027	
1.608000	-0.403689	0.004988	-0.001271	-0.016461	0.000100	-0.000117	0.000027	
1.610000	-0.400370	0.004944	-0.001231	-0.016454	0.000099	-0.000117	0.000027	
1.612000	-0.397077	0.004900	-0.001193	-0.016447	0.000098	-0.000118	0.000026	
1.614000	-0.393812	0.004857	-0.001156	-0.016441	0.000097	-0.000118	0.000026	
1.616000	-0.390574	0.004814	-0.001119	-0.016434	0.000096	-0.000118	0.000026	
1.618000	-0.387362	0.004772	-0.001083	-0.016428	0.000095	-0.000118	0.000026	
1.620000	-0.384177	0.004730	-0.001047	-0.016421	0.000094	-0.000118	0.000026	
1.622000	-0.381018	0.004688	-0.001013	-0.016415	0.000093	-0.000118	0.000025	
1.624000	-0.377884	0.004647	-0.000979	-0.016409	0.000092	-0.000118	0.000025	
1.626000	-0.374777	0.004606	-0.000945	-0.016403	0.000091	-0.000118	0.000025	
1.628000	-0.371695	0.004565	-0.000913	-0.016398	0.000090	-0.000119	0.000025	
1.630000	-0.368639	0.004525	-0.000881	-0.016392	0.000089	-0.000119	0.000024	
1.632000	-0.365607	0.004485	-0.000850	-0.016386	0.000088	-0.000119	0.000024	
1.634000	-0.362601	0.004446	-0.000819	-0.016381	0.000087	-0.000119	0.000024	
1.636000	-0.359619	0.004407	-0.000789	-0.016375	0.000086	-0.000119	0.000024	
1.638000	-0.356662	0.004368	-0.000760	-0.016370	0.000085	-0.000119	0.000024	
1.640000	-0.353729	0.004330	-0.000731	-0.016365	0.000084	-0.000119	0.000023	
1.642000	-0.350821	0.004292	-0.000703	-0.016360	0.000083	-0.000120	0.000023	
1.644000	-0.347936	0.004254	-0.000675	-0.016355	0.000082	-0.000120	0.000023	
1.646000	-0.345075	0.004217	-0.000648	-0.016350	0.000081	-0.000120	0.000023	
1.648000	-0.342237	0.004180	-0.000622	-0.016346	0.000080	-0.000120	0.000023	
1.650000	-0.339423	0.004143	-0.000596	-0.016341	0.000080	-0.000120	0.000023	
1.652000	-0.336632	0.004107	-0.000570	-0.016337	0.000079	-0.000121	0.000022	
1.654000	-0.333864	0.004071	-0.000545	-0.016332	0.000078	-0.000121	0.000022	
1.656000	-0.331118	0.004036	-0.000521	-0.016328	0.000077	-0.000121	0.000022	
1.658000	-0.328396	0.004000	-0.000497	-0.016324	0.000076	-0.000121	0.000022	
1.660000	-0.325695	0.003965	-0.000474	-0.016320	0.000075	-0.000121	0.000022	
1.662000	-0.323017	0.003931	-0.000451	-0.016316	0.000074	-0.000121	0.000021	
1.664000	-0.320361	0.003896	-0.000429	-0.016312	0.000073	-0.000122	0.000021	
1.666000	-0.317727	0.003862	-0.000407	-0.016308	0.000073	-0.000122	0.000021	
1.668000	-0.315114	0.003829	-0.000386	-0.016304	0.000072	-0.000122	0.000021	
1.670000	-0.312523	0.003795	-0.000365	-0.016301	0.000071	-0.000122	0.000021	
1.672000	-0.309953	0.003762	-0.000344	-0.016297	0.000070	-0.000122	0.000021	
1.674000	-0.307404	0.003729	-0.000324	-0.016294	0.000069	-0.000122	0.000020	
1.676000	-0.304877	0.003697	-0.000305	-0.016290	0.000068	-0.000123	0.000020	
1.678000	-0.302370	0.003665	-0.000285	-0.016287	0.000068	-0.000123	0.000020	
1.680000	-0.299883	0.003633	-0.000267	-0.016283	0.000067	-0.000123	0.000020	
1.682000	-0.297417	0.003601	-0.000248	-0.016280	0.000066	-0.000123	0.000020	
1.684000	-0.294972	0.003570	-0.000231	-0.016277	0.000065	-0.000123	0.000019	
1.686000	-0.292546	0.003539	-0.000213	-0.016274	0.000065	-0.000123	0.000019	
1.688000	-0.290141	0.003508	-0.000196	-0.016271	0.000064	-0.000124	0.000019	
1.690000	-0.287755	0.003477	-0.000179	-0.016268	0.000063	-0.000124	0.000019	
1.692000	-0.285389	0.003447	-0.000163	-0.016265	0.000062	-0.000124	0.000019	
1.694000	-0.283042	0.003417	-0.000147	-0.016263	0.000061	-0.000124	0.000019	
1.696000	-0.280715	0.003388	-0.000131	-0.016260	0.000061	-0.000124	0.000019	
1.698000	-0.278407	0.003358	-0.000116	-0.016257	0.000060	-0.000124	0.000018	
1.700000	-0.276117	0.003329	-0.000101	-0.016255	0.000059	-0.000125	0.000018	
1.702000	-0.273847	0.003301	-0.000086	-0.016252	0.000059	-0.000125	0.000018	
1.704000	-0.271595	0.003272	-0.000072	-0.016250	0.000058	-0.000125	0.000018	
1.706000	-0.269362	0.003244	-0.000058	-0.016247	0.000057	-0.000125	0.000018	
1.708000	-0.267147	0.003216	-0.000045	-0.016245	0.000056	-0.000125	0.000018	
1.710000	-0.264950	0.003188	-0.000031	-0.016243	0.000056	-0.000125	0.000017	
1.712000	-0.262772	0.003160	-0.000019	-0.016240	0.000055	-0.000126	0.000017	
1.714000	-0.260611	0.003133	-0.000006	-0.016238	0.000054	-0.000126	0.000017	
1.716000	-0.258468	0.003106	0.000006	-0.016236	0.000054	-0.000126	0.000017	
1.718000	-0.256343	0.003079	0.000018	-0.016234	0.000053	-0.000126	0.000017	
1.720000	-0.254235	0.003053	0.000030	-0.016232	0.000052	-0.000126	0.000017	
1.722000	-0.252144	0.003027	0.000042	-0.016230	0.000052	-0.000126	0.000017	
1.724000	-0.250071	0.003001	0.000053	-0.016228	0.000051	-0.000126	0.000016	
1.726000	-0.248015	0.002975	0.000064	-0.016226	0.000050	-0.000127	0.000016	
1.728000	-0.245976	0.002950	0.000074	-0.016224	0.000050	-0.000127	0.000016	
1.730000	-0.243953	0.002924	0.000085	-0.016223	0.000049	-0.000127	0.000016	
1.732000	-0.241947	0.002899	0.000095	-0.016221	0.000048	-0.000127	0.000016	
1.734000	-0.239958	0.002874	0.000105	-0.016219	0.000048	-0.000127	0.000016	
1.736000	-0.237985	0.002850	0.000114	-0.016217	0.000047	-0.000127	0.000016	
1.738000	-0.236028	0.002826	0.000124	-0.016216	0.000046	-0.000127	0.000016	
1.740000	-0.234087	0.002801	0.000133	-0.016214	0.000046	-0.000127	0.000015	
1.742000	-0.232162	0.002778	0.000142	-0.016213	0.000045	-0.000128	0.000015	
1.744000	-0.230253	0.002754	0.000150	-0.016211	0.000045	-0.000128	0.000015	
1.746000	-0.228360	0.002731	0.000159	-0.016210	0.000044	-0.000128	0.000015	
1.748000	-0.226482	0.002707	0.000167	-0.016208	0.000043	-0.000128	0.000015	
1.750000	-0.224620	0.002684	0.000175	-0.016207	0.000043	-0.000128	0.000015	
1.752000	-0.222773	0.002662	0.000183	-0.016205	0.000042	-0.000128	0.000015	
1.754000	-0.220941	0.002639	0.000190	-0.016204	0.000042	-0.000128	0.000015	
1.756000	-0.219124	0.002617	0.000198	-0.016203	0.000041	-0.000128	0.000014	
1.758000	-0.217323	0.002595	0.000205	-0.016201	0.000041	-0.000129	0.000014	
1.760000	-0.215536	0.002573	0.000212	-0.016200	0.000040	-0.000129	0.000014	
1.762000	-0.213764	0.002551	0.000219	-0.016199	0.000039	-0.000129	0.000014	
1.764000	-0.212006	0.002530	0.000225	-0.016198	0.000039	-0.000129	0.000014	
1.766000	-0.210258	0.002508	0.000228	-0.016197	0.000038	-0.000129	0.000014	
1.768000	-0.208523	0.002487	0.000233	-0.016196	0.000032	-0.000129	0.000013	
1.770000	-0.206798	0.002467	0.000237	-0.016195	0.000030	-0.000130	0.000011	
1.772000	-0.205087	0.002446	0.000242	-0.016194	0.000027	-0.000130	0.000012	
1.774000	-0.203387	0.002426	0.000246	-0.016193	0.000027	-0.000131	0.000011	
1.776000	-0.201701	0.002405	0.000252	-0.016192	0.000026	-0.000131	0.000011	
1.778000	-0.200027	0.002385	0.000256	-0.016191	0.000027	-0.000132	0.000011	
1.780000	-0.198367	0.002365	0.000262	-0.016190	0.000028	-0.000132	0.000012	
1.782000	-0.196719	0.002346	0.000266	-0.016190	0.000029	-0.000132	0.000012	
1.784000	-0.195085	0.002326	0.000271	-0.016189	0.000029	-0.000132	0.000012	
1.786000	-0.193463	0.002307	0.000276	-0.016188	0.000030	-0.000132	0.000012	
1.788000	-0.191855	0.002288	0.000281	-0.016187	0.000030	-0.000132	0.000012	
1.790000	-0.190260	0.002269	0.000285	-0.016186	0.000030	-0.000132	0.000012	
1.792000	-0.188677	0.002250	0.000289	-0.016185	0.000030	-0.000131	0.000012	
1.794000	-0.187108	0.002231	0.000294	-0.016184	0.000030	-0.000131	0.000012	
1.796000	-0.185551	0.002213	0.000298	-0.016184	0.000030	-0.000131	0.000012	
1.798000	-0.184007	0.002195	0.000302	-0.016183	0.000030	-0.000131	0.000012	
1.800000	-0.182475	0.002177	0.000306	-0.016182	0.000030	-0.000131	0.000012	
1.802000	-0.180956	0.002159	0.000310	-0.016181	0.000029	-0.000131	0.000012	
1.804000	-0.179450	0.002141	0.000313	-0.016181	0.000029	-0.000131	0.000012	
1.806000	-0.177956	0.002124	0.000317	-0.016180	0.000029	-0.000131	0.000012	
1.808000	-0.176474	0.002107	0.000320	-0.016179	0.000028	-0.000131	0.000012	
1.810000	-0.174768	0.002091	0.000090	-0.016183	0.000026	-0.000124	0.000011	
1.812000	-0.172908	0.002076	0.000069	-0.016188	-0.000299	-0.000132	-0.000010	
1.814000	-0.170919	0.002061	-0.000077	-0.016197	-0.000362	-0.000159	-0.000117	
1.816000	-0.168841	0.002046	-0.000091	-0.016205	-0.000526	-0.000186	-0.000098	
1.818000	-0.166689	0.002031	-0.000176	-0.016215	-0.000487	-0.000215	-0.000144	
1.820000	-0.164490	0.002015	-0.000178	-0.016222	-0.000508	-0.000233	-0.000101	
1.822000	-0.162251	0.001999	-0.000223	-0.016228	-0.000415	-0.000246	-0.000108	
1.824000	-0.159988	0.001983	-0.000218	-0.016233	-0.000377	-0.000250	-0.000066	
1.826000	-0.157708	0.001966	-0.000238	-0.016236	-0.000284	-0.000249	-0.000061	
1.828000	-0.155421	0.001950	-0.000227	-0.016238	-0.000237	-0.000243	-0.000031	
1.830000	-0.153129	0.001933	-0.000233	-0.016239	-0.000166	-0.000235	-0.000026	
1.832000	-0.150840	0.001916	-0.000220	-0.016240	-0.000129	-0.000225	-0.000007	
1.834000	-0.148554	0.001900	-0.000217	-0.016240	-0.000082	-0.000215	-0.000005	
1.836000	-0.146278	0.001883	-0.000203	-0.016239	-0.000057	-0.000205	0.000006	
1.838000	-0.144011	0.001867	-0.000195	-0.016239	-0.000028	-0.000195	0.000006	
1.840000	-0.141756	0.001851	-0.000181	-0.016238	-0.000013	-0.000186	0.000012	
1.842000	-0.139513	0.001835	-0.000170	-0.016237	0.000005	-0.000179	0.000012	
1.844000	-0.137285	0.001820	-0.000156	-0.016236	0.000013	-0.000172	0.000015	
1.846000	-0.135072	0.001804	-0.000144	-0.016235	0.000024	-0.000166	0.000014	
1.848000	-0.132875	0.001789	-0.000130	-0.016233	0.000029	-0.000160	0.000016	
1.850000	-0.130693	0.001774	-0.000118	-0.016232	0.000035	-0.000156	0.000015	
1.852000	-0.128069	0.001762	-0.000556	-0.016241	0.000035	-0.000138	0.000015	
1.854000	-0.125143	0.001751	-0.000591	-0.016249	-0.000592	-0.000150	-0.000026	
1.856000	-0.121957	0.001740	-0.000866	-0.016267	-0.000711	-0.000201	-0.000232	
1.858000	-0.118595	0.001729	-0.000886	-0.016283	-0.001027	-0.000251	-0.000195	
1.860000	-0.115083	0.001718	-0.001043	-0.016301	-0.000949	-0.000304	-0.000284	
1.862000	-0.111473	0.001705	-0.001041	-0.016314	-0.000987	-0.000338	-0.000200	
1.864000	-0.107780	0.001692	-0.001121	-0.016326	-0.000808	-0.000362	-0.000214	
1.866000	-0.104037	0.001678	-0.001103	-0.016334	-0.000732	-0.000368	-0.000132	
1.868000	-0.100254	0.001663	-0.001135	-0.016341	-0.000552	-0.000366	-0.000123	
1.870000	-0.096451	0.001648	-0.001107	-0.016344	-0.000460	-0.000354	-0.000064	
1.872000	-0.092635	0.001633	-0.001111	-0.016347	-0.000322	-0.000338	-0.000055	
1.874000	-0.088817	0.001617	-0.001080	-0.016347	-0.000250	-0.000318	-0.000019	
1.876000	-0.085004	0.001602	-0.001067	-0.016347	-0.000158	-0.000298	-0.000014	
1.878000	-0.081201	0.001587	-0.001033	-0.016345	-0.000110	-0.000277	0.000006	
1.880000	-0.077412	0.001572	-0.001012	-0.016344	-0.000052	-0.000259	0.000007	
1.882000	-0.073641	0.001558	-0.000977	-0.016341	-0.000023	-0.000241	0.000018	
1.884000	-0.069890	0.001544	-0.000951	-0.016339	0.000011	-0.000226	0.000018	
1.886000	-0.066162	0.001529	-0.000917	-0.016336	0.000028	-0.000212	0.000024	
1.888000	-0.062458	0.001516	-0.000887	-0.016333	0.000048	-0.000200	0.000023	
1.890000	-0.058779	0.001502	-0.000854	-0.016330	0.000058	-0.000190	0.000026	
1.892000	-0.055126	0.001489	-0.000823	-0.016327	0.000070	-0.000181	0.000025	
1.894000	-0.051110	0.001478	-0.001175	-0.016333	0.000073	-0.000161	0.000025	
1.896000	-0.046849	0.001468	-0.001185	-0.016338	-0.000456	-0.000167	-0.000009	
1.898000	-0.042382	0.001459	-0.001399	-0.016351	-0.000556	-0.000207	-0.000184	
1.900000	-0.037779	0.001450	-0.001396	-0.016362	-0.000821	-0.000247	-0.000153	
1.902000	-0.033061	0.001440	-0.001510	-0.016375	-0.000754	-0.000290	-0.000228	
1.904000	-0.028274	0.001429	-0.001489	-0.016384	-0.000786	-0.000318	-0.000157	
1.906000	-0.023430	0.001418	-0.001537	-0.016393	-0.000633	-0.000337	-0.000168	
1.908000	-0.018557	0.001406	-0.001504	-0.016397	-0.000568	-0.000340	-0.000099	
1.910000	-0.013663	0.001394	-0.001512	-0.016401	-0.000415	-0.000338	-0.000092	
1.912000	-0.008766	0.001382	-0.001471	-0.016401	-0.000337	-0.000326	-0.000042	
1.914000	-0.003872	0.001369	-0.001457	-0.016401	-0.000220	-0.000311	-0.000034	
1.916000	0.001010	0.001357	-0.001413	-0.016399	-0.000158	-0.000293	-0.000003	
1.918000	0.005876	0.001344	-0.001385	-0.016397	-0.000080	-0.000276	0.000001	
1.920000	0.010719	0.001332	-0.001340	-0.016393	-0.000040	-0.000258	0.000018	
1.922000	0.015538	0.001320	-0.001305	-0.016390	0.000009	-0.000241	0.000019	
1.924000	0.020327	0.001309	-0.001260	-0.016386	0.000033	-0.000226	0.000028	
1.926000	0.025087	0.001297	-0.001222	-0.016381	0.000062	-0.000212	0.000028	
1.928000	0.029815	0.001286	-0.001177	-0.016377	0.000077	-0.000200	0.000033	
1.930000	0.034509	0.001275	-0.001137	-0.016372	0.000094	-0.000189	0.000032	
1.932000	0.039170	0.001265	-0.001094	-0.016367	0.000101	-0.000180	0.000034	
1.934000	0.043795	0.001255	-0.001054	-0.016362	0.000111	-0.000172	0.000033	
1.936000	0.049039	0.001249	-0.001656	-0.016371	0.000112	-0.000145	0.000033	
1.938000	0.054703	0.001244	-0.001684	-0.016381	-0.000781	-0.000160	-0.000025	
1.940000	0.060724	0.001240	-0.002055	-0.016403	-0.000951	-0.000232	-0.000319	
1.942000	0.066985	0.001235	-0.002063	-0.016422	-0.001401	-0.000303	-0.000266	
1.944000	0.073447	0.001230	-0.002265	-0.016445	-0.001291	-0.000380	-0.000393	
1.946000	0.080038	0.001223	-0.002242	-0.016461	-0.001346	-0.000429	-0.000274	
1.948000	0.086735	0.001215	-0.002335	-0.016475	-0.001091	-0.000464	-0.000293	
1.950000	0.093492	0.001206	-0.002290	-0.016483	-0.000983	-0.000473	-0.000177	
1.952000	0.100294	0.001196	-0.002316	-0.016490	-0.000727	-0.000471	-0.000164	
1.954000	0.107113	0.001186	-0.002258	-0.016491	-0.000596	-0.000453	-0.000081	
1.956000	0.113939	0.001175	-0.002245	-0.016491	-0.000400	-0.000431	-0.000068	
1.958000	0.120756	0.001164	-0.002182	-0.016489	-0.000298	-0.000402	-0.000016	
1.960000	0.127556	0.001154	-0.002146	-0.016485	-0.000166	-0.000374	-0.000010	
1.962000	0.134330	0.001143	-0.002081	-0.016480	-0.000099	-0.000345	0.000020	
1.964000	0.141072	0.001133	-0.002033	-0.016475	-0.000017	-0.000319	0.000021	
1.966000	0.147778	0.001123	-0.001967	-0.016468	0.000024	-0.000293	0.000037	
1.968000	0.154445	0.001114	-0.001912	-0.016462	0.000073	-0.000271	0.000036	
1.970000	0.161068	0.001105	-0.001847	-0.016454	0.000097	-0.000251	0.000044	
1.972000	0.167646	0.001096	-0.001790	-0.016447	0.000125	-0.000234	0.000043	
1.974000	0.174178	0.001087	-0.001726	-0.016440	0.000139	-0.000219	0.000047	
1.976000	0.181213	0.001083	-0.002210	-0.016444	0.000152	-0.000189	0.000044	
1.978000	0.188583	0.001079	-0.002207	-0.016449	-0.000597	-0.000195	-0.000002	
1.980000	0.196235	0.001076	-0.002495	-0.016464	-0.000733	-0.000251	-0.000251	
1.982000	0.204070	0.001073	-0.002475	-0.016476	-0.001111	-0.000306	-0.000205	
1.984000	0.212056	0.001069	-0.002621	-0.016492	-0.001013	-0.000367	-0.000313	
1.986000	0.220130	0.001064	-0.002576	-0.016501	-0.001060	-0.000405	-0.000211	
1.988000	0.228273	0.001058	-0.002631	-0.016510	-0.000842	-0.000433	-0.000228	
1.990000	0.236448	0.001052	-0.002568	-0.016514	-0.000751	-0.000438	-0.000130	
1.992000	0.244640	0.001045	-0.002567	-0.016515	-0.000534	-0.000434	-0.000120	
1.994000	0.252827	0.001037	-0.002495	-0.016513	-0.000424	-0.000418	-0.000049	
1.996000	0.261001	0.001029	-0.002461	-0.016509	-0.000258	-0.000397	-0.000038	
1.998000	0.269147	0.001022	-0.002385	-0.016504	-0.000172	-0.000372	0.000006	
2.000000	0.277259	0.001014	-0.002333	-0.016497	-0.000061	-0.000347	0.000011	
2.002000	0.285330	0.001007	-0.002256	-0.016489	-0.000005	-0.000321	0.000035	
2.004000	0.293355	0.001000	-0.002194	-0.016481	0.000064	-0.000298	0.000036	
2.006000	0.301330	0.000994	-0.002118	-0.016472	0.000098	-0.000276	0.000049	
2.008000	0.309253	0.000988	-0.002052	-0.016462	0.000139	-0.000256	0.000048	
2.010000	0.317121	0.000982	-0.001977	-0.016453	0.000159	-0.000238	0.000055	
2.012000	0.324932	0.000976	-0.001909	-0.016443	0.000183	-0.000223	0.000054	
2.014000	0.332685	0.000971	-0.001837	-0.016434	0.000194	-0.000209	0.000058	
2.016000	0.340379	0.000966	-0.001769	-0.016424	0.000208	-0.000196	0.000056	
2.018000	0.348014	0.000962	-0.001698	-0.016414	0.000214	-0.000186	0.000058	
2.020000	0.353297	0.000943	0.000628	-0.016355	0.000236	-0.000246	0.000066	
2.022000	0.356922	0.000923	0.000936	-0.016294	0.003390	-0.000163	0.000266	
2.024000	0.359108	0.000898	0.002443	-0.016188	0.004001	0.000119	0.001300	
2.026000	0.360267	0.000879	0.002672	-0.016094	0.005590	0.000390	0.001114	
2.028000	0.360534	0.000862	0.003584	-0.015987	0.005207	0.000676	0.001558	
2.030000	0.360164	0.000853	0.003697	-0.015904	0.005404	0.000862	0.001140	
2.032000	0.359240	0.000849	0.004217	-0.015825	0.004508	0.000997	0.001206	
2.034000	0.357922	0.000850	0.004246	-0.015767	0.004127	0.001038	0.000799	
2.036000	0.356263	0.000854	0.004523	-0.015718	0.003228	0.001036	0.000752	
2.038000	0.354364	0.000862	0.004502	-0.015684	0.002764	0.000978	0.000457	
2.040000	0.352258	0.000871	0.004634	-0.015656	0.002072	0.000904	0.000411	
2.042000	0.350009	0.000882	0.004585	-0.015638	0.001707	0.000806	0.000228	
2.044000	0.347639	0.000893	0.004631	-0.015622	0.001242	0.000710	0.000204	
2.046000	0.345187	0.000905	0.004568	-0.015613	0.000999	0.000610	0.000101	
2.048000	0.342668	0.000917	0.004562	-0.015605	0.000708	0.000520	0.000094	
2.050000	0.340106	0.000929	0.004491	-0.015600	0.000558	0.000434	0.000038	
2.052000	0.337510	0.000940	0.004456	-0.015596	0.000382	0.000359	0.000039	
2.054000	0.334895	0.000951	0.004381	-0.015593	0.000293	0.000292	0.000009	
2.056000	0.332267	0.000962	0.004328	-0.015591	0.000187	0.000234	0.000012	
2.058000	0.329635	0.000972	0.004252	-0.015590	0.000134	0.000183	-0.000005	
2.060000	0.327004	0.000982	0.004190	-0.015590	0.000070	0.000140	-0.000001	
2.062000	0.324378	0.000992	0.004113	-0.015590	0.000039	0.000102	-0.000011	
2.064000	0.321760	0.001001	0.004046	-0.015590	0.000000	0.000071	-0.000009	
2.066000	0.319154	0.001010	0.003970	-0.015590	-0.000019	0.000043	-0.000015	
2.068000	0.316561	0.001018	0.003901	-0.015591	-0.000043	0.000020	-0.000013	
2.070000	0.313982	0.001026	0.003827	-0.015592	-0.000055	0.000000	-0.000017	
2.072000	0.311420	0.001034	0.003757	-0.015593	-0.000069	-0.000017	-0.000016	
2.074000	0.308875	0.001042	0.003684	-0.015595	-0.000076	-0.000031	-0.000018	
2.076000	0.306347	0.001049	0.003615	-0.015596	-0.000085	-0.000044	-0.000018	
2.078000	0.303838	0.001055	0.003545	-0.015598	-0.000089	-0.000054	-0.000019	
2.080000	0.301347	0.001062	0.003477	-0.015600	-0.000095	-0.000063	-0.000018	
2.082000	0.298876	0.001068	0.003409	-0.015602	-0.000097	-0.000071	-0.000019	
2.084000	0.296423	0.001073	0.003342	-0.015604	-0.000100	-0.000078	-0.000019	
2.086000	0.293989	0.001079	0.003276	-0.015606	-0.000102	-0.000084	-0.000019	
2.088000	0.291575	0.001084	0.003212	-0.015609	-0.000103	-0.000089	-0.000019	
2.090000	0.289179	0.001089	0.003148	-0.015611	-0.000104	-0.000093	-0.000019	
2.092000	0.286803	0.001093	0.003085	-0.015614	-0.000105	-0.000097	-0.000019	
2.094000	0.284447	0.001098	0.003024	-0.015617	-0.000105	-0.000100	-0.000019	
2.096000	0.282109	0.001102	0.002963	-0.015619	-0.000105	-0.000103	-0.000019	
2.098000	0.279790	0.001105	0.002904	-0.015622	-0.000105	-0.000105	-0.000019	
2.100000	0.277490	0.001109	0.002845	-0.015625	-0.000105	-0.000108	-0.000019	
2.102000	0.275209	0.001112	0.002787	-0.015628	-0.000105	-0.000110	-0.000019	
2.104000	0.272946	0.001115	0.002731	-0.015632	-0.000105	-0.000112	-0.000018	
2.106000	0.270702	0.001118	0.002675	-0.015635	-0.000104	-0.000113	-0.000018	
2.108000	0.268476	0.001120	0.002621	-0.015638	-0.000104	-0.000115	-0.000018	
2.110000	0.266269	0.001123	0.002567	-0.015642	-0.000104	-0.000116	-0.000018	
2.112000	0.264080	0.001125	0.002514	-0.015645	-0.000103	-0.000117	-0.000018	
2.114000	0.261908	0.001127	0.002462	-0.015649	-0.000103	-0.000119	-0.000018	
2.116000	0.259755	0.001128	0.002411	-0.015652	-0.000102	-0.000120	-0.000018	
2.118000	0.257619	0.001130	0.002361	-0.015656	-0.000102	-0.000121	-0.000017	
2.120000	0.255500	0.001131	0.002312	-0.015659	-0.000101	-0.000122	-0.000017	
2.122000	0.253400	0.001132	0.002264	-0.015663	-0.000101	-0.000123	-0.000017	
2.124000	0.251316	0.001133	0.002217	-0.015667	-0.000100	-0.000124	-0.000017	
2.126000	0.249249	0.001134	0.002170	-0.015671	-0.000100	-0.000124	-0.000017	
2.128000	0.247200	0.001135	0.002124	-0.015675	-0.000099	-0.000125	-0.000017	
2.130000	0.245167	0.001135	0.002079	-0.015679	-0.000099	-0.000126	-0.000017	
2.132000	0.243151	0.001135	0.002035	-0.015683	-0.000098	-0.000127	-0.000016	
2.134000	0.241152	0.001135	0.001992	-0.015686	-0.000098	-0.000128	-0.000016	
2.136000	0.239169	0.001135	0.001949	-0.015691	-0.000097	-0.000128	-0.000016	
2.138000	0.237202	0.001135	0.001907	-0.015695	-0.000097	-0.000129	-0.000016	
2.140000	0.235252	0.001135	0.001866	-0.015699	-0.000096	-0.000130	-0.000016	
2.142000	0.233317	0.001134	0.001826	-0.015703	-0.000096	-0.000130	-0.000016	
2.144000	0.231399	0.001133	0.001786	-0.015707	-0.000095	-0.000131	-0.000016	
2.146000	0.229496	0.001133	0.001747	-0.015711	-0.000095	-0.000131	-0.000015	
2.148000	0.227609	0.001132	0.001709	-0.015715	-0.000094	-0.000132	-0.000015	
2.150000	0.225737	0.001131	0.001672	-0.015719	-0.000094	-0.000133	-0.000015	
2.152000	0.223881	0.001129	0.001635	-0.015724	-0.000094	-0.000133	-0.000015	
2.154000	0.222040	0.001128	0.001599	-0.015728	-0.000093	-0.000134	-0.000015	
2.156000	0.220214	0.001127	0.001563	-0.015732	-0.000093	-0.000134	-0.000015	
2.158000	0.218403	0.001125	0.001528	-0.015736	-0.000092	-0.000135	-0.000015	
2.160000	0.216607	0.001124	0.001494	-0.015740	-0.000092	-0.000135	-0.000014	
2.162000	0.214826	0.001122	0.001461	-0.015745	-0.000091	-0.000136	-0.000014	
2.164000	0.213060	0.001120	0.001427	-0.015749	-0.000091	-0.000136	-0.000014	
2.166000	0.211308	0.001118	0.001395	-0.015753	-0.000090	-0.000137	-0.000014	
2.168000	0.209570	0.001116	0.001363	-0.015757	-0.000090	-0.000137	-0.000014	
2.170000	0.207847	0.001114	0.001332	-0.015762	-0.000089	-0.000138	-0.000014	
2.172000	0.206138	0.001112	0.001301	-0.015766	-0.000089	-0.000138	-0.000014	
2.174000	0.204443	0.001109	0.001271	-0.015770	-0.000088	-0.000138	-0.000014	
2.176000	0.202762	0.001107	0.001242	-0.015774	-0.000088	-0.000139	-0.000014	
2.178000	0.201095	0.001105	0.001213	-0.015779	-0.000088	-0.000139	-0.000013	
2.180000	0.199441	0.001102	0.001184	-0.015783	-0.000087	-0.000140	-0.000013	
2.182000	0.197801	0.001100	0.001156	-0.015787	-0.000087	-0.000140	-0.000013	
2.184000	0.196174	0.001097	0.001129	-0.015791	-0.000086	-0.000140	-0.000013	
2.186000	0.194561	0.001094	0.001102	-0.015796	-0.000086	-0.000141	-0.000013	
2.188000	0.192962	0.001091	0.001075	-0.015800	-0.000085	-0.000141	-0.000013	
2.190000	0.191375	0.001088	0.001050	-0.015804	-0.000085	-0.000141	-0.000013	
2.192000	0.189801	0.001085	0.001024	-0.015808	-0.000085	-0.000142	-0.000013	
2.194000	0.188240	0.001082	0.000999	-0.015812	-0.000084	-0.000142	-0.000013	
2.196000	0.186693	0.001079	0.000975	-0.015816	-0.000084	-0.000142	-0.000012	
2.198000	0.185157	0.001076	0.000950	-0.015821	-0.000083	-0.000143	-0.000012	
2.200000	0.183635	0.001073	0.000927	-0.015825	-0.000083	-0.000143	-0.000012	
2.202000	0.182125	0.001070	0.000904	-0.015829	-0.000082	-0.000143	-0.000012	
2.204000	0.180627	0.001067	0.000881	-0.015833	-0.000082	-0.000143	-0.000012	
2.206000	0.179142	0.001063	0.000859	-0.015837	-0.000082	-0.000144	-0.000012	
2.208000	0.177669	0.001060	0.000837	-0.015841	-0.000081	-0.000144	-0.000012	
2.210000	0.176208	0.001057	0.000815	-0.015845	-0.000081	-0.000144	-0.000012	
2.212000	0.174759	0.001053	0.000794	-0.015849	-0.000080	-0.000145	-0.000012	
2.214000	0.173322	0.001050	0.000774	-0.015853	-0.000080	-0.000145	-0.000011	
2.216000	0.171897	0.001046	0.000753	-0.015857	-0.000080	-0.000145	-0.000011	
2.218000	0.170484	0.001043	0.000733	-0.015861	-0.000079	-0.000145	-0.000011	
2.220000	0.169082	0.001039	0.000714	-0.015865	-0.000079	-0.000145	-0.000011	
2.222000	0.167691	0.001036	0.000695	-0.015869	-0.000078	-0.000146	-0.000011	
2.224000	0.166313	0.001032	0.000676	-0.015873	-0.000078	-0.000146	-0.000011	
2.226000	0.164945	0.001028	0.000657	-0.015876	-0.000078	-0.000146	-0.000011	
2.228000	0.163589	0.001025	0.000639	-0.015880	-0.000077	-0.000146	-0.000011	
2.230000	0.162244	0.001021	0.000622	-0.015884	-0.000077	-0.000146	-0.000011	
2.232000	0.160909	0.001017	0.000604	-0.015888	-0.000076	-0.000147	-0.000011	
2.234000	0.159586	0.001014	0.000587	-0.015891	-0.000076	-0.000147	-0.000011	
2.236000	0.158274	0.001010	0.000571	-0.015895	-0.000076	-0.000147	-0.000010	
2.238000	0.156973	0.001006	0.000554	-0.015899	-0.000075	-0.000147	-0.000010	
2.240000	0.155682	0.001002	0.000538	-0.015902	-0.000075	-0.000147	-0.000010	
2.242000	0.154402	0.000998	0.000522	-0.015906	-0.000075	-0.000147	-0.000010	
2.244000	0.153132	0.000995	0.000507	-0.015910	-0.000074	-0.000147	-0.000010	
2.246000	0.151873	0.000991	0.000492	-0.015913	-0.000074	-0.000148	-0.000010	
2.248000	0.150624	0.000987	0.000477	-0.015917	-0.000073	-0.000148	-0.000010	
2.250000	0.149386	0.000983	0.000462	-0.015920	-0.000073	-0.000148	-0.000010	
2.252000	0.148157	0.000979	0.000448	-0.015924	-0.000073	-0.000148	-0.000010	
2.254000	0.146939	0.000976	0.000434	-0.015927	-0.000072	-0.000148	-0.000010	
2.256000	0.145731	0.000972	0.000420	-0.015931	-0.000072	-0.000148	-0.000010	
2.258000	0.144532	0.000968	0.000407	-0.015934	-0.000072	-0.000148	-0.000009	
2.260000	0.143344	0.000964	0.000394	-0.015937	-0.000071	-0.000148	-0.000009	
2.262000	0.142165	0.000960	0.000381	-0.015941	-0.000071	-0.000148	-0.000009	
2.264000	0.140996	0.000956	0.000368	-0.015944	-0.000071	-0.000149	-0.000009	
2.266000	0.139837	0.000952	0.000356	-0.015947	-0.000070	-0.000149	-0.000009	
2.268000	0.138687	0.000948	0.000344	-0.015950	-0.000070	-0.000149	-0.000009	
2.270000	0.137547	0.000945	0.000332	-0.015953	-0.000070	-0.000149	-0.000009	
2.272000	0.136416	0.000941	0.000320	-0.015957	-0.000069	-0.000149	-0.000009	
2.274000	0.135294	0.000937	0.000309	-0.015960	-0.000069	-0.000149	-0.000009	
2.276000	0.134182	0.000933	0.000297	-0.015963	-0.000069	-0.000149	-0.000009	
2.278000	0.133078	0.000929	0.000286	-0.015966	-0.000068	-0.000149	-0.000009	
2.280000	0.131984	0.000925	0.000276	-0.015969	-0.000068	-0.000149	-0.000009	
2.282000	0.130899	0.000922	0.000265	-0.015972	-0.000068	-0.000149	-0.000009	
2.284000	0.129822	0.000918	0.000255	-0.015975	-0.000067	-0.000149	-0.000008	
2.286000	0.128755	0.000914	0.000245	-0.015978	-0.000067	-0.000149	-0.000008	
2.288000	0.127696	0.000910	0.000235	-0.015981	-0.000067	-0.000149	-0.000008	
2.290000	0.126646	0.000906	0.000225	-0.015984	-0.000066	-0.000149	-0.000008	
2.292000	0.125605	0.000903	0.000216	-0.015986	-0.000066	-0.000149	-0.000008	
2.294000	0.124572	0.000899	0.000206	-0.015989	-0.000066	-0.000149	-0.000008	
2.296000	0.123548	0.000895	0.000197	-0.015992	-0.000065	-0.000149	-0.000008	
2.298000	0.122532	0.000891	0.000188	-0.015995	-0.000065	-0.000149	-0.000008	
2.300000	0.121524	0.000887	0.000180	-0.015997	-0.000065	-0.000149	-0.000008	
2.302000	0.120525	0.000884	0.000171	-0.016000	-0.000065	-0.000149	-0.000008	
2.304000	0.119534	0.000880	0.000163	-0.016003	-0.000064	-0.000149	-0.000008	
2.306000	0.118551	0.000876	0.000155	-0.016005	-0.000064	-0.000149	-0.000008	
2.308000	0.117576	0.000873	0.000147	-0.016008	-0.000064	-0.000149	-0.000008	
2.310000	0.116610	0.000869	0.000139	-0.016010	-0.000063	-0.000149	-0.000008	
2.312000	0.115651	0.000865	0.000131	-0.016013	-0.000063	-0.000149	-0.000008	
2.314000	0.114700	0.000862	0.000124	-0.016015	-0.000063	-0.000149	-0.000007	
2.316000	0.113757	0.000858	0.000116	-0.016018	-0.000062	-0.000149	-0.000007	
2.318000	0.112821	0.000855	0.000109	-0.016020	-0.000062	-0.000149	-0.000007	
2.320000	0.111894	0.000851	0.000102	-0.016023	-0.000062	-0.000149	-0.000007	
2.322000	0.110974	0.000847	0.000095	-0.016025	-0.000062	-0.000149	-0.000007	
2.324000	0.110061	0.000844	0.000089	-0.016027	-0.000061	-0.000149	-0.000007	
2.326000	0.109156	0.000840	0.000082	-0.016030	-0.000061	-0.000149	-0.000007	
2.328000	0.108231	-0.000443	0.006609	-0.011697	-0.007001	-0.006344	0.000180	
2.330000	0.107802	-0.002321	0.008159	-0.006565	-0.003329	-0.004777	-0.002530	
2.332000	0.107385	-0.004679	0.013737	-0.000875	-0.003835	0.000305	-0.000909	
2.334000	0.107280	-0.007404	0.016347	0.004960	0.001282	0.006513	-0.002008	
2.336000	0.107192	-0.010449	0.021290	0.010849	0.002766	0.013025	-0.000391	
2.338000	0.107285	-0.013766	0.024475	0.016619	0.006651	0.018990	-0.000822	
2.340000	0.107384	-0.017335	0.028918	0.022253	0.007841	0.024325	0.000212	
2.342000	0.107571	-0.021136	0.032368	0.027679	0.009971	0.028764	-0.000073	
2.344000	0.107747	-0.025158	0.036429	0.032900	0.010452	0.032435	0.000432	
2.346000	0.107947	-0.029392	0.039960	0.037892	0.011298	0.035295	0.000200	
2.348000	0.108121	-0.033831	0.043743	0.042662	0.011291	0.037504	0.000395	
2.350000	0.108278	-0.038469	0.047253	0.047206	0.011433	0.039097	0.000227	
2.352000	0.108395	-0.043301	0.050832	0.051532	0.011200	0.040206	0.000281	
2.354000	0.108472	-0.048323	0.054266	0.055643	0.011033	0.040885	0.000179	
2.356000	0.108498	-0.053530	0.057687	0.059546	0.010729	0.041227	0.000185	
2.358000	0.108469	-0.058916	0.061019	0.063247	0.010458	0.041283	0.000133	
2.360000	0.108381	-0.064477	0.064306	0.066752	0.010148	0.041112	0.000128	
2.362000	0.108230	-0.070209	0.067524	0.070066	0.009857	0.040756	0.000106	
2.364000	0.108014	-0.076106	0.070688	0.073195	0.009562	0.040252	0.000102	
2.366000	0.107730	-0.082164	0.073791	0.076145	0.009278	0.039629	0.000095	
2.368000	0.107378	-0.088377	0.076836	0.078920	0.008998	0.038912	0.000094	
2.370000	0.107020	-0.093447	0.075847	0.077045	0.013713	0.044769	-0.000390	
2.372000	0.106558	-0.098094	0.076211	0.074275	0.012207	0.042208	0.001956	
2.374000	0.106052	-0.102443	0.075671	0.070914	0.010335	0.036172	0.001254	
2.376000	0.105486	-0.106576	0.075326	0.067243	0.006838	0.028999	0.001416	
2.378000	0.104877	-0.110546	0.074725	0.063433	0.003699	0.021654	0.000719	
2.380000	0.104227	-0.114385	0.074168	0.059581	0.000777	0.014803	0.000406	
2.382000	0.103544	-0.118110	0.073551	0.055752	-0.001429	0.008672	0.000009	
2.384000	0.102834	-0.121733	0.072964	0.051980	-0.003073	0.003375	-0.000168	
2.386000	0.102103	-0.125262	0.072376	0.048290	-0.004146	-0.001108	-0.000289	
2.388000	0.101355	-0.128699	0.071813	0.044692	-0.004812	-0.004830	-0.000306	
2.390000	0.100594	-0.132047	0.071263	0.041191	-0.005161	-0.007880	-0.000289	
2.392000	0.099823	-0.135307	0.070733	0.037789	-0.005305	-0.010345	-0.000241	
2.394000	0.099043	-0.138480	0.070216	0.034486	-0.005314	-0.012317	-0.000189	
2.396000	0.098258	-0.141567	0.069713	0.031279	-0.005248	-0.013876	-0.000137	
2.398000	0.097466	-0.144569	0.069222	0.028166	-0.005140	-0.015093	-0.000094	
2.400000	0.096671	-0.147487	0.068743	0.025143	-0.005017	-0.016028	-0.000060	
2.402000	0.095872	-0.150320	0.068273	0.022209	-0.004890	-0.016733	-0.000034	
2.404000	0.095070	-0.153071	0.067813	0.019360	-0.004768	-0.017252	-0.000016	
2.406000	0.094266	-0.155740	0.067362	0.016594	-0.004652	-0.017617	-0.000004	
2.408000	0.093460	-0.158329	0.066919	0.013908	-0.004545	-0.017859	0.000003	
2.410000	0.092652	-0.160838	0.066485	0.011301	-0.004445	-0.018000	0.000008	
2.412000	0.091842	-0.163270	0.066059	0.008771	-0.004352	-0.018060	0.000010	
2.414000	0.090928	-0.165955	0.068427	0.007434	-0.006915	-0.019704	-0.000001	
2.416000	0.089999	-0.168724	0.068993	0.006385	-0.005438	-0.019331	-0.000937	
2.418000	0.089000	-0.171540	0.070849	0.005536	-0.005430	-0.017869	-0.000256	
2.420000	0.087982	-0.174381	0.071844	0.004807	-0.003737	-0.016132	-0.000579	
2.422000	0.086920	-0.177233	0.073444	0.004153	-0.003120	-0.014233	-0.000044	
2.424000	0.085839	-0.180086	0.074607	0.003540	-0.001943	-0.012479	-0.000146	
2.426000	0.084727	-0.182935	0.076048	0.002952	-0.001486	-0.010856	0.000138	
2.428000	0.083597	-0.185777	0.077258	0.002376	-0.000869	-0.009465	0.000071	
2.430000	0.082443	-0.188610	0.078591	0.001805	-0.000669	-0.008263	0.000184	
2.432000	0.081272	-0.191434	0.079798	0.001235	-0.000419	-0.007271	0.000122	
2.434000	0.080082	-0.194247	0.081053	0.000664	-0.000382	-0.006444	0.000154	
2.436000	0.078877	-0.197051	0.082236	0.000090	-0.000315	-0.005778	0.000104	
2.438000	0.077655	-0.199843	0.083433	-0.000486	-0.000347	-0.005237	0.000106	
2.440000	0.076420	-0.202625	0.084584	-0.001064	-0.000355	-0.004809	0.000073	
2.442000	0.075171	-0.205397	0.085734	-0.001644	-0.000402	-0.004468	0.000069	
2.444000	0.073910	-0.208158	0.086852	-0.002225	-0.000431	-0.004203	0.000049	
2.446000	0.072636	-0.210909	0.087960	-0.002808	-0.000475	-0.003998	0.000046	
2.448000	0.071352	-0.213650	0.089044	-0.003390	-0.000506	-0.003844	0.000035	
2.450000	0.070056	-0.216380	0.090115	-0.003973	-0.000542	-0.003729	0.000034	
2.452000	0.068750	-0.219099	0.091166	-0.004556	-0.000569	-0.003646	0.000029	
2.454000	0.067435	-0.221807	0.092202	-0.005139	-0.000597	-0.003591	0.000028	
2.456000	0.066046	-0.224648	0.094768	-0.005241	-0.002052	-0.004255	0.000003	
2.458000	0.064628	-0.227551	0.096275	-0.005239	-0.001277	-0.004139	-0.000479	
2.460000	0.063153	-0.230497	0.098519	-0.005175	-0.001417	-0.003543	-0.000086	
2.462000	0.061649	-0.233478	0.100219	-0.005083	-0.000574	-0.002863	-0.000280	
2.464000	0.060104	-0.236485	0.102270	-0.004984	-0.000387	-0.002110	0.000024	
2.466000	0.058531	-0.239514	0.104028	-0.004890	0.000171	-0.001443	-0.000055	
2.468000	0.056927	-0.242561	0.105945	-0.004810	0.000305	-0.000834	0.000107	
2.470000	0.055298	-0.245625	0.107696	-0.004748	0.000575	-0.000342	0.000056	
2.472000	0.053642	-0.248704	0.109511	-0.004707	0.000604	0.000064	0.000123	
2.474000	0.051965	-0.251797	0.111227	-0.004690	0.000690	0.000369	0.000082	
2.476000	0.050266	-0.254903	0.112962	-0.004695	0.000653	0.000598	0.000104	
2.478000	0.048548	-0.258021	0.114632	-0.004723	0.000648	0.000751	0.000073	
2.480000	0.046811	-0.261151	0.116299	-0.004774	0.000586	0.000847	0.000077	
2.482000	0.045056	-0.264292	0.117920	-0.004847	0.000546	0.000891	0.000058	
2.484000	0.043284	-0.267443	0.119526	-0.004941	0.000481	0.000895	0.000057	
2.486000	0.041497	-0.270603	0.121097	-0.005055	0.000431	0.000864	0.000046	
2.488000	0.039695	-0.273773	0.122649	-0.005189	0.000371	0.000808	0.000044	
2.490000	0.037878	-0.276951	0.124170	-0.005343	0.000321	0.000729	0.000038	
2.492000	0.036047	-0.280137	0.125670	-0.005514	0.000267	0.000633	0.000037	
2.494000	0.034203	-0.283330	0.127143	-0.005703	0.000220	0.000523	0.000034	
2.496000	0.032346	-0.286530	0.128594	-0.005910	0.000171	0.000403	0.000034	
2.498000	0.030476	-0.289735	0.130020	-0.006133	0.000126	0.000274	0.000032	
2.500000	0.028544	-0.293058	0.132781	-0.006002	-0.001164	-0.000401	0.000006	
2.502000	0.026570	-0.296446	0.134616	-0.005796	-0.000517	-0.000488	-0.000406	
2.504000	0.024540	-0.299883	0.137075	-0.005559	-0.000667	-0.000165	-0.000061	
2.506000	0.022470	-0.303362	0.139062	-0.005310	0.000023	0.000223	-0.000226	
2.508000	0.020355	-0.306875	0.141336	-0.005069	0.000155	0.000688	0.000036	
2.510000	0.018204	-0.310419	0.143355	-0.004845	0.000598	0.001088	-0.000031	
2.512000	0.016015	-0.313990	0.145496	-0.004645	0.000688	0.001452	0.000106	
2.514000	0.013794	-0.317587	0.147492	-0.004472	0.000889	0.001725	0.000063	
2.516000	0.011542	-0.321207	0.149529	-0.004329	0.000891	0.001937	0.000119	
2.518000	0.009262	-0.324850	0.151478	-0.004216	0.000939	0.002070	0.000084	
2.520000	0.006955	-0.328514	0.153431	-0.004134	0.000887	0.002146	0.000101	
2.522000	0.004623	-0.332198	0.155324	-0.004081	0.000859	0.002164	0.000076	
2.524000	0.002267	-0.335902	0.157203	-0.004059	0.000786	0.002139	0.000078	
2.526000	-0.000110	-0.339624	0.159038	-0.004065	0.000730	0.002074	0.000061	
2.528000	-0.002509	-0.343363	0.160851	-0.004099	0.000655	0.001980	0.000060	
2.530000	-0.004928	-0.347119	0.162628	-0.004160	0.000591	0.001859	0.000050	
2.532000	-0.007365	-0.350891	0.164380	-0.004248	0.000521	0.001718	0.000048	
2.534000	-0.009821	-0.354677	0.166100	-0.004361	0.000458	0.001561	0.000043	
2.536000	-0.012294	-0.358478	0.167794	-0.004498	0.000393	0.001392	0.000042	
2.538000	-0.014784	-0.362292	0.169459	-0.004660	0.000333	0.001213	0.000039	
2.540000	-0.017289	-0.366118	0.171098	-0.004845	0.000273	0.001027	0.000038	
2.542000	-0.019810	-0.369956	0.172709	-0.005052	0.000216	0.000835	0.000036	
2.544000	-0.022173	-0.373131	0.167626	-0.007488	0.006467	0.003846	0.000115	
2.546000	-0.024366	-0.375948	0.166839	-0.010488	0.003070	0.003256	0.002253	
2.548000	-0.026342	-0.378506	0.162893	-0.013774	0.003353	0.000283	0.000587	
2.550000	-0.028148	-0.380842	0.161063	-0.017220	-0.000521	-0.003150	0.001369	
2.552000	-0.029764	-0.382996	0.157691	-0.020709	-0.001699	-0.006979	0.000060	
2.554000	-0.031227	-0.384987	0.155437	-0.024184	-0.004386	-0.010458	0.000341	
2.556000	-0.032532	-0.386832	0.152426	-0.027602	-0.005253	-0.013681	-0.000366	
2.558000	-0.033707	-0.388538	0.150033	-0.030937	-0.006650	-0.016385	-0.000172	
2.560000	-0.034750	-0.390115	0.147271	-0.034176	-0.006957	-0.018690	-0.000471	
2.562000	-0.035683	-0.391565	0.144864	-0.037307	-0.007495	-0.020529	-0.000296	
2.564000	-0.036508	-0.392894	0.142281	-0.040330	-0.007447	-0.022008	-0.000394	
2.566000	-0.037240	-0.394104	0.139911	-0.043242	-0.007542	-0.023130	-0.000254	
2.568000	-0.037883	-0.395198	0.137465	-0.046045	-0.007348	-0.023978	-0.000274	
2.570000	-0.038448	-0.396178	0.135153	-0.048739	-0.007258	-0.024573	-0.000178	
2.572000	-0.038940	-0.397048	0.132817	-0.051327	-0.007033	-0.024974	-0.000177	
2.574000	-0.039366	-0.397810	0.130572	-0.053812	-0.006884	-0.025205	-0.000118	
2.576000	-0.039730	-0.398465	0.128331	-0.056196	-0.006674	-0.025304	-0.000115	
2.578000	-0.040040	-0.399016	0.126157	-0.058481	-0.006516	-0.025290	-0.000081	
2.580000	-0.040298	-0.399467	0.124002	-0.060671	-0.006330	-0.025189	-0.000079	
2.582000	-0.040509	-0.399819	0.121900	-0.062767	-0.006178	-0.025014	-0.000061	
2.584000	-0.040678	-0.400075	0.119824	-0.064771	-0.006014	-0.024782	-0.000060	
2.586000	-0.040807	-0.400237	0.117794	-0.066687	-0.005870	-0.024503	-0.000050	
2.588000	-0.040900	-0.400307	0.115794	-0.068516	-0.005722	-0.024187	-0.000049	
2.590000	-0.040960	-0.400289	0.113834	-0.070260	-0.005586	-0.023841	-0.000043	
2.592000	-0.040989	-0.400184	0.111905	-0.071921	-0.005450	-0.023472	-0.000042	
2.594000	-0.040990	-0.399995	0.110013	-0.073502	-0.005321	-0.023086	-0.000038	
2.596000	-0.040965	-0.399724	0.108154	-0.075004	-0.005193	-0.022685	-0.000037	
